!!!!SEGMENT: pl-cz--i-10--001_engel-jan--requiem-requiem.krn
!!!cenid: 17xx:876
!!!COM: Engel, Jan
!!!COM-rismID: pe30009138
!!!CDT: <1772->1788
!!!CNT:
!!!OPR: Requiem
!!!OTL: Requiem
!!!OMV: 001
!!!PDT:
!!!AGN: Sacred; Requiem
!!!SMS-siglum: PL-CZ
!!!SMS-shelfmark: I-10
!!!SMS-shelfwork: 001-001 M
!!!SMS-variant:
!!!SMS-altvar:
!!!NIFC-rismSourceID: 300000291
!!!NIFC-rismChildID: 300000291
!!!NIFC-islandoraID:
!!!URL-pdf-islandora:
!!!URL-scan:
!!!IIIF:
!!!ONB-nifc: UWAGA: części Requiem: Requiem, Dies irae, Domine Jesu Christe, Sanctus et Benedictus, Osanna, Agnus Dei
!!!AIN: 1 alto 2 clars 4 empty 2 flt 1 tenor 2 viola 2 violn 1 vox
!!!key:
**kern	**dynam	**kern	**dynam	**kern	**dynam	**kern	**dynam	**kern	**dynam	**kern	**text	**dynam	**kern	**text	**kern	**text	**dynam	**kern	**text	**dynam	**kern	**dynam	**kern	**dynam	**kern	**dynam	**kern	**dynam	**kern	**dynam	**kern	**dynam
*part15	*part15	*part14	*part14	*part13	*part13	*part12	*part12	*part11	*part11	*part10	*part10	*part10	*part9	*part9	*part8	*part8	*part8	*part7	*part7	*part7	*part6	*part6	*part5	*part5	*part4	*part4	*part3	*part3	*part2	*part2	*part1	*part1
*staff15	*	*staff14	*	*staff13	*	*staff12	*	*staff11	*	*staff10	*staff10	*	*staff9	*staff9	*staff8	*staff8	*	*staff7	*staff7	*	*staff6	*	*staff5	*	*staff4	*	*staff3	*	*staff2	*	*staff1	*
*Iempty	*	*Iviola	*	*Iviola	*	*Ivioln	*	*Ivioln	*	*Iempty	*	*	*Itenor	*	*Ialto	*	*	*Ivox	*	*	*Iempty	*	*Iempty	*	*Iclars	*	*Iclars	*	*Iflt	*	*Iflt	*
*I"Fundamento.	*	*I"Viola IIda	*	*I"Viola Ima	*	*I"Violino Secondo.	*	*I"Violino. Primo.	*	*I"Baſso.	*	*	*I"Tenore.	*	*I"Alto.	*	*	*I"Canto.	*	*	*I"Cornu Secondo in Dis.	*	*I"Cornu Primo in Dis	*	*I"Clarinetto Secondo in Es.	*	*I"Clarinetto Primo in B.	*	*I"Flauto Secondo.	*	*I"Flauto Primo	*
*I'org	*	*I'vla II	*	*I'vla I	*	*I'vl II	*	*I'vl I	*	*I'B	*	*	*I'T	*	*I'A	*	*	*I'C	*	*	*I'cor II	*	*I'cor I	*	*I'cl II	*	*I'cl I	*	*I'fl II	*	*I'fl I	*
*clefF4	*	*clefC3	*	*clefC3	*	*clefG2	*	*clefG2	*	*clefF4	*	*	*clefC4	*	*clefC3	*	*	*clefC1	*	*	*clefG2	*	*clefG2	*	*clefG2	*	*clefG2	*	*clefG2	*	*clefG2	*
*	*	*	*	*	*	*	*	*	*	*	*	*	*	*	*	*	*	*	*	*	*ITrd5c9	*	*ITrd5c9	*	*ITrd1c2	*	*ITrd1c2	*	*	*	*	*
*k[b-e-a-]	*	*k[b-e-a-]	*	*k[b-e-a-]	*	*k[b-e-a-]	*	*k[b-e-a-]	*	*k[b-e-a-]	*	*	*k[b-e-a-]	*	*k[b-e-a-]	*	*	*k[b-e-a-]	*	*	*k[b-e-a-]	*	*k[b-e-a-]	*	*k[b-e-a-]	*	*k[b-e-a-]	*	*k[b-e-a-]	*	*k[b-e-a-]	*
*E-:	*	*E-:	*	*E-:	*	*E-:	*	*E-:	*	*E-:	*	*	*E-:	*	*E-:	*	*	*E-:	*	*	*E-:	*	*E-:	*	*E-:	*	*E-:	*	*E-:	*	*E-:	*
*M3/4	*	*M3/4	*	*M3/4	*	*M3/4	*	*M3/4	*	*M3/4	*	*	*M3/4	*	*M3/4	*	*	*M3/4	*	*	*M3/4	*	*M3/4	*	*M3/4	*	*M3/4	*	*M3/4	*	*M3/4	*
=1	=1	=1	=1	=1	=1	=1	=1	=1	=1	=1	=1	=1	=1	=1	=1	=1	=1	=1	=1	=1	=1	=1	=1	=1	=1	=1	=1	=1	=1	=1	=1	=1
*	*	*	*	*	*	*	*below	*	*below	*	*	*	*	*	*	*	*below	*	*	*	*	*	*	*	*	*	*	*	*	*	*	*
!	!	!	!	!	!	!	!	!	!	!LO:TX:a:t=P:problem=kolejność znaków&colon; BB- E- A-	!	!	!	!	!	!	!	!	!	!	!	!	!	!	!	!	!	!	!	!	!	!
!LO:TX:a:t=P:problem=4,8 middle or right&colon;global	!	!	!	!LO:TX:a:t=P:problem=4,8 middle or right&colon;global	!	!	!	!	!	!LO:TX:a:t=24.	!	!	!LO:TX:a:t=P:problem=kolejność znakówi&colon; as, es, b	!	!	!	!	!LO:TX:a:t=P:problem=kolejność znaków&colon; e- b- a-	!	!	!	!	!	!	!	!	!	!	!	!	!LO:TX:a:t=P:problem=4,8 middle or right&colon;global	!
!LO:TX:a:t=P:problem=kolejność znaków BB- A- E-	!	!LO:TX:a:t=P:problem=4,8 middle or right&colon;global	!	!LO:TX:a:t=P:problem=4,8 middle or right&colon;global	!	!LO:TX:a:t=P:problem=4,8 middle or right&colon;global	!	!LO:TX:a:t=P:problem=4,8 middle or right&colon;global	!	!LO:TX:i:a:t=Tutti	!	!	!LO:TX:a:t=24.	!	!LO:TX:a:t=P:problem=kolejność znaków&colon; e- b- a-	!	!	!LO:TX:a:t=24.	!	!	!LO:TX:a:t=P:2\right&colon;global:problem	!	!LO:TX:a:t=P:2\right&colon;global:problem	!	!LO:TX:a:t=P:2\right&colon;global:problem	!	!LO:TX:a:t=P:2\right&colon;global:problem	!	!LO:TX:a:t=P:problem=4,8 middle or right&colon;global	!	!LO:TX:a:t=P:problem=kolejność znaków a- ee- b-	!
!LO:TX:i:a:B:t=Adagio:rj	!	!LO:TX:i:a:B:t=Adagio.:rj	!	!LO:TX:i:a:B:t=Adagio.:rj	!	!LO:TX:i:a:B:t=Adagio:rj	!	!LO:TX:i:a:B:t=Adagio.:rj	!	!LO:TX:i:a:B:t=Adagio:rj	!	!	!LO:TX:i:a:B:t=Adagio:rj	!	!LO:TX:a:i:B:t=Adagio:rj	!	!	!LO:TX:a:i:B:t=Adagio:rj	!	!	!LO:TX:i:a:B:t=Adagio:rj	!	!LO:TX:i:a:B:t=Adagio:rj	!	!LO:TX:i:a:B:t=Adagio:rj	!	!LO:TX:i:a:B:t=Adagio:rj	!	!LO:TX:i:a:B:t=Adagio:rj	!	!LO:TX:i:a:B:t=Adagio:rj	!
!	!	!	!LO:HP:b:i:t=po	!	!	!	!	!	!	!LO:N:vis=00	!	!	!LO:N:vis=00	!	!LO:N:vis=00	!	!	!LO:N:vis=00	!	!	!	!	!	!	!	!	!	!	!	!	!	!
(>8E-\L	p	(>4e-\	p	(>4e-\	p	(<8g/L	p	(>8ee-\L	.	0.r	.	.	0.r	.	0.r	.	.	0.r	.	.	2.e-\	.	2.g\	.	2.ee-\	.	2.ee-\	.	(>4ee-\	.	(>4ee-\	.
8E-\	.	.	.	.	.	8g/	.	8ee-\	.	.	.	.	.	.	.	.	.	.	.	.	.	.	.	.	.	.	.	.	.	.	.	.
!	!	!	!	!	!	!	!	!	!	!	!	!	!	!	!	!	!	!	!	!	!	!	!	!	!	!	!	!	!	!LO:HP:b:i:t=po	!	!LO:DY:rj
!	!	!	!	!	!	!	!	!	!	!	!	!	!	!	!	!	!	!	!	!	!	!	!	!	!	!	!	!	!	!LO:DY:rj	!	!
8E-\	.	4e-\	.	4e-\	.	8g/	.	8ee-\	.	.	.	.	.	.	.	.	.	.	.	.	.	.	.	.	.	.	.	.	4ee-\	p	4ee-\	p
!	!	!	!	!	!	!	!	!LO:TX:b:t=P:problem=dynamika zapisana na czerwono	!	!	!	!	!	!	!	!	!	!	!	!	!	!	!	!	!	!	!	!	!	!	!	!
8E-\	.	.	.	.	.	8g/	.	8ee-\	p	.	.	.	.	.	.	.	.	.	.	.	.	.	.	.	.	.	.	.	.	.	.	.
8E-\	.	4e-\)	.	4e-\)	.	8g/	.	8ee-\	.	.	.	.	.	.	.	.	.	.	.	.	.	.	.	.	.	.	.	.	4ee-\)	.	4ee-\)	.
8E-\J)	.	.	.	.	.	8g/J)	.	8ee-\J)	.	.	.	.	.	.	.	.	.	.	.	.	.	.	.	.	.	.	.	.	.	.	.	.
=2	=2	=2	=2	=2	=2	=2	=2	=2	=2	=2	=2	=2	=2	=2	=2	=2	=2	=2	=2	=2	=2	=2	=2	=2	=2	=2	=2	=2	=2	=2	=2	=2
!	!	!	!	!	!	!	!	!	!	!	!	!	!	!	!	!	!	!	!	!	!	!	!	!	!	!	!	!	!LO:TX:a:t=P:2\right&colon;global:problem	!	!LO:TX:a:t=P:2\right&colon;global:problem	!
(>8E-\L	.	(>4e-\	.	(>4e-\	.	(<8g/L	.	(>8b-\L	.	.	.	.	.	.	.	.	.	.	.	.	4r	.	4r	.	2.gg\	.	2.bb-\	p	2.ee-\	.	2.eee-\	.
8E-\	.	.	.	.	.	8g/	.	8b-\	.	.	.	.	.	.	.	.	.	.	.	.	.	.	.	.	.	.	.	.	.	.	.	.
!	!	!	!	!	!	!	!	!	!	!	!	!	!	!	!	!	!	!	!	!	!	!	!	!LO:HP:b:i:t=po	!	!	!	!	!	!	!	!
8E-\	.	4e-\	.	4e-\	.	8g/	.	8b-\	.	.	.	.	.	.	.	.	.	.	.	.	4r	.	4r	p	.	.	.	.	.	.	.	.
8E-\	.	.	.	.	.	8g/	.	8b-\	.	.	.	.	.	.	.	.	.	.	.	.	.	.	.	.	.	.	.	.	.	.	.	.
!	!	!	!	!	!	!	!	!	!	!	!	!	!	!	!	!	!	!	!	!	!LO:TX:a:t=P:problem=4,8 middle or right&colon;global	!	!LO:TX:a:t=P:problem=4,8 middle or right&colon;global	!	!	!	!	!	!	!	!	!
8E-\	.	4e-\)	.	4e-\)	.	8g/	.	8b-\	.	.	.	.	.	.	.	.	.	.	.	.	4g\	.	4b-\	.	.	.	.	.	.	.	.	.
8E-\J)	.	.	.	.	.	8g/J)	.	8b-\J)	.	.	.	.	.	.	.	.	.	.	.	.	.	.	.	.	.	.	.	.	.	.	.	.
=3	=3	=3	=3	=3	=3	=3	=3	=3	=3	=3	=3	=3	=3	=3	=3	=3	=3	=3	=3	=3	=3	=3	=3	=3	=3	=3	=3	=3	=3	=3	=3	=3
!	!	!	!	!	!	!	!	!	!	!	!	!	!	!	!	!	!	!	!	!	!	!LO:DY:rj	!	!	!	!LO:DY:rj	!	!	!	!	!	!
(>8E-\L	.	(>4e-\	.	(>4e-\	.	(<8a-/L	.	(>8cc\L	.	.	.	.	.	.	.	.	.	.	.	.	4a-\	p	4cc\	.	2.aa-\	p	2.ccc\	.	2.ee-\	.	2.eee-\	.
8E-\	.	.	.	.	.	8a-/	.	8cc\	.	.	.	.	.	.	.	.	.	.	.	.	.	.	.	.	.	.	.	.	.	.	.	.
8E-\	.	4e-\	.	4e-\	.	8a-/	.	8cc\	.	.	.	.	.	.	.	.	.	.	.	.	8f\L	.	8a-\L	.	.	.	.	.	.	.	.	.
8E-\	.	.	.	.	.	8a-/	.	8cc\	.	.	.	.	.	.	.	.	.	.	.	.	8g\J	.	8b-\J	.	.	.	.	.	.	.	.	.
8E-\	.	4e-\)	.	4e-\)	.	8a-/	.	8cc\	.	.	.	.	.	.	.	.	.	.	.	.	4a-\	.	4cc\	.	.	.	.	.	.	.	.	.
8E-\J)	.	.	.	.	.	8a-/J)	.	8cc\J)	.	.	.	.	.	.	.	.	.	.	.	.	.	.	.	.	.	.	.	.	.	.	.	.
=4	=4	=4	=4	=4	=4	=4	=4	=4	=4	=4	=4	=4	=4	=4	=4	=4	=4	=4	=4	=4	=4	=4	=4	=4	=4	=4	=4	=4	=4	=4	=4	=4
!	!	!	!	!	!	!	!	!	!	!	!	!	!	!	!	!	!	!	!	!	!	!	!	!	!LO:TX:a:t=P:problem=4,8 middle or right&colon;global	!	!LO:TX:a:t=P:problem=4,8 middle or right&colon;global	!	!	!	!	!
(>8E-\L	.	4e-\	.	4e-\	.	4a-/	.	4cc\	.	.	.	.	.	.	.	.	.	.	.	.	4a-\	.	4cc\	.	4aa-\	.	4ccc\	.	4ee-\	.	2eee-\	.
8E-\	.	.	.	.	.	.	.	.	.	.	.	.	.	.	.	.	.	.	.	.	.	.	.	.	.	.	.	.	.	.	.	.
8E-\	.	4e-\	.	4e-\	.	4g/	.	4b-\	.	.	.	.	.	.	.	.	.	.	.	.	4g\	.	4b-\	.	4gg\	.	4bb-\	.	4ee-\	.	.	.
8E-\	.	.	.	.	.	.	.	.	.	.	.	.	.	.	.	.	.	.	.	.	.	.	.	.	.	.	.	.	.	.	.	.
8E-\	.	[<4g\	.	4ee-\	.	[<4g/	.	[>4ee-\	.	.	.	.	.	.	.	.	.	.	.	.	[<4g\	.	[<4ee-\	.	4g/	.	[>4ee-\	.	[>4gg\	.	4eee-\	.
8E-\J)	.	.	.	.	.	.	.	.	.	.	.	.	.	.	.	.	.	.	.	.	.	.	.	.	.	.	.	.	.	.	.	.
!LO:LB:g=original	!	!	!	!	!	!	!	!	!	!	!	!	!	!	!	!	!	!	!	!	!	!	!	!	!	!	!	!	!	!	!	!
=5	=5	=5	=5	=5	=5	=5	=5	=5	=5	=5	=5	=5	=5	=5	=5	=5	=5	=5	=5	=5	=5	=5	=5	=5	=5	=5	=5	=5	=5	=5	=5	=5
!	!	!	!	!	!	!	!	!	!	!LO:N:vis=00	!	!	!LO:N:vis=00	!	!LO:N:vis=00	!	!	!LO:N:vis=00	!	!	!	!	!	!	!	!	!	!	!	!	!	!
(>8E-\L	.	4g\]	.	4ee-\	.	4g/]	.	4ee-\]	.	0.r	.	.	0.r	.	0.r	.	.	0.r	.	.	4g\]	.	4ee-\]	.	4g/	.	4ee-\]	.	4gg\]	.	4eee-\	.
8E-\	.	.	.	.	.	.	.	.	.	.	.	.	.	.	.	.	.	.	.	.	.	.	.	.	.	.	.	.	.	.	.	.
8E-\	.	4b-\	.	4dd\	.	4b-/	.	(>4dd\	.	.	.	.	.	.	.	.	.	.	.	.	4b-\	.	4dd\	.	4b-/	.	4dd\	.	4bb-\	.	4ddd\	.
8E-\	.	.	.	.	.	.	.	.	.	.	.	.	.	.	.	.	.	.	.	.	.	.	.	.	.	.	.	.	.	.	.	.
8E-\	.	[>4a-\	.	[>4cc\	.	[<4a-/	.	4cc\)	.	.	.	.	.	.	.	.	.	.	.	.	[<4a-\	.	[<4cc\	.	[<4a-/	.	[>4cc\	.	[>4aa-\	.	[>4ccc\	.
8E-\J)	.	.	.	.	.	.	.	.	.	.	.	.	.	.	.	.	.	.	.	.	.	.	.	.	.	.	.	.	.	.	.	.
!	!	!	!	!	!	!LO:LB:g=original	!	!LO:LB:g=original	!	!	!	!	!	!	!	!	!	!	!	!	!	!	!	!	!	!	!	!	!	!	!	!
=6	=6	=6	=6	=6	=6	=6	=6	=6	=6	=6	=6	=6	=6	=6	=6	=6	=6	=6	=6	=6	=6	=6	=6	=6	=6	=6	=6	=6	=6	=6	=6	=6
(>8E-\L	.	4a-\]	.	4cc\]	.	4a-/]	.	4cc\	.	.	.	.	.	.	.	.	.	.	.	.	4a-\]	.	4cc\]	.	4a-/]	.	4cc\]	.	4aa-\]	.	4ccc\]	.
8E-\	.	.	.	.	.	.	.	.	.	.	.	.	.	.	.	.	.	.	.	.	.	.	.	.	.	.	.	.	.	.	.	.
8E-\	.	4g\	.	4b-\	.	4g/	.	(>4b-\	.	.	.	.	.	.	.	.	.	.	.	.	4g\	.	4b-\	.	4g/	.	4b-\	.	4gg\	.	4bb-\	.
8E-\	.	.	.	.	.	.	.	.	.	.	.	.	.	.	.	.	.	.	.	.	.	.	.	.	.	.	.	.	.	.	.	.
8E-\	.	4f\	.	4a-\	.	4f/	.	4a-\)	.	.	.	.	.	.	.	.	.	.	.	.	4f\	.	4a-\	.	4ff\	.	4aa-\	.	4ff\	.	4aa-\	.
8E-\J)	.	.	.	.	.	.	.	.	.	.	.	.	.	.	.	.	.	.	.	.	.	.	.	.	.	.	.	.	.	.	.	.
!	!	!	!	!	!	!	!	!	!	!	!	!	!	!	!	!	!	!	!	!	!	!	!	!	!	!	!	!	!LO:LB:g=original	!	!	!
=7	=7	=7	=7	=7	=7	=7	=7	=7	=7	=7	=7	=7	=7	=7	=7	=7	=7	=7	=7	=7	=7	=7	=7	=7	=7	=7	=7	=7	=7	=7	=7	=7
!	!	!	!	!	!	!	!LO:DY:rj	!	!	!	!	!	!	!	!	!	!	!	!	!	!	!LO:HP:b:i:t=fr	!	!	!	!	!	!	!	!	!	!
!	!	!	!LO:HP:b:i:t=f:	!	!	!	!	!	!	!	!	!	!	!	!	!	!	!	!	!	!	!LO:DY:rj	!	!LO:HP:b:i:t=fr	!	!	!	!	!	!	!	!
8E-\L	f	4e-\	f	4g\	.	4e-/	f	4g`>/	.	.	.	.	.	.	.	.	.	.	.	.	4e-\	f	4g\	f	4ee-\	.	4gg\	.	4ee-\	.	4gg\	f
8E-\	.	.	.	.	.	.	.	.	.	.	.	.	.	.	.	.	.	.	.	.	.	.	.	.	.	.	.	.	.	.	.	.
8D\	.	4d\	.	4f\	f	4f/	.	4a-`>/	f	.	.	.	.	.	.	.	.	.	.	.	4f\	.	4a-\	.	4ff\	.	4aa-\	.	4dd\	f	4ff\	.
8D\	.	.	.	.	.	.	.	.	.	.	.	.	.	.	.	.	.	.	.	.	.	.	.	.	.	.	.	.	.	.	.	.
8E-\	.	4e-\	.	4e-\	.	4e-/	.	4g`>/	.	.	.	.	.	.	.	.	.	.	.	.	4e-\	.	4g\	.	4ee-\	.	4gg\	.	4ee-\	.	4ee-\	.
8E-\J	.	.	.	.	.	.	.	.	.	.	.	.	.	.	.	.	.	.	.	.	.	.	.	.	.	.	.	.	.	.	.	.
!	!	!LO:LB:g=original	!	!	!	!	!	!	!	!	!	!	!	!	!	!	!	!	!	!	!	!	!	!	!	!	!	!	!	!	!LO:LB:g=original	!
=8	=8	=8	=8	=8	=8	=8	=8	=8	=8	=8	=8	=8	=8	=8	=8	=8	=8	=8	=8	=8	=8	=8	=8	=8	=8	=8	=8	=8	=8	=8	=8	=8
4B-\	.	4b-\	.	4b-\	.	4e-/	.	4g`>/	.	.	.	.	.	.	.	.	.	.	.	.	4e-\	.	4g\	.	4ee-\	.	4gg\	.	4bb-\	.	4bb-\	.
!	!	!	!	!	!	!	!	!	!	!	!	!	!	!	!	!	!	!	!	!	!	!LO:HP:b:i:t=po.	!	!	!	!	!	!	!	!	!	!
4BB-/	.	4B-/	.	4B-/	.	4d/	.	4f`>/	.	.	.	.	.	.	.	.	.	.	.	.	4B-/	p	4f\	.	4dd\	.	4ff\	.	4b-/	.	4b-/	.
8B-\L	p	4r	.	4r	.	4r	.	4r	.	.	.	.	.	.	.	.	.	.	.	.	4B-/	.	4B-/	p	4r	.	4r	.	4r	.	4r	.
8B-\J	.	.	.	.	.	.	.	.	.	.	.	.	.	.	.	.	.	.	.	.	.	.	.	.	.	.	.	.	.	.	.	.
!	!	!	!	!LO:LB:g=original	!	!	!	!	!	!	!	!	!	!	!	!	!	!	!	!	!LO:LB:g=original	!	!LO:LB:g=original	!	!	!	!	!	!	!	!	!
=9	=9	=9	=9	=9	=9	=9	=9	=9	=9	=9	=9	=9	=9	=9	=9	=9	=9	=9	=9	=9	=9	=9	=9	=9	=9	=9	=9	=9	=9	=9	=9	=9
!	!	!	!	!	!LO:DY:rj	!	!LO:DY:rj	!	!	!	!	!	!	!	!	!	!	!	!	!	!	!	!	!	!	!	!	!	!	!	!	!
!	!	!	!LO:HP:b:i:t=po	!	!	!	!	!	!	!LO:N:vis=00	!	!	!LO:N:vis=00	!	!LO:N:vis=00	!	!	!LO:N:vis=00	!	!	!	!	!	!	!	!	!	!	!	!LO:DY:rj	!	!
8B-\L	.	4e-\	p	4g-X\	p	4e-/	p	4g-X/	.	0.rG	.	.	0.rc	.	0.re	.	.	0.rcc	.	.	4B-/	.	4B-/	.	4ee-\	.	4gg-X\	.	4ee-\	p	4gg-X\	p
8B-\	.	.	.	.	.	.	.	.	.	.	.	.	.	.	.	.	.	.	.	.	.	.	.	.	.	.	.	.	.	.	.	.
!	!	!	!	!	!	!	!	!	!LO:DY:rj	!	!	!	!	!	!	!	!	!	!	!	!	!	!	!	!	!	!	!	!	!	!	!
8B-\	.	4f\	.	4a-\	.	4f/	.	4a-/	p	.	.	.	.	.	.	.	.	.	.	.	4B-/	.	4B-/	.	4ff\	.	4aa-\	.	4ff\	.	4aa-\	.
8B-\	.	.	.	.	.	.	.	.	.	.	.	.	.	.	.	.	.	.	.	.	.	.	.	.	.	.	.	.	.	.	.	.
8B-\	.	4e-\	.	4g-\	.	4e-/	.	4g-X/	.	.	.	.	.	.	.	.	.	.	.	.	4B-/	.	4B-/	.	4ee-\	.	4gg-\	.	4ee-\	.	4gg-\	.
8B-\J	.	.	.	.	.	.	.	.	.	.	.	.	.	.	.	.	.	.	.	.	.	.	.	.	.	.	.	.	.	.	.	.
!	!	!	!	!	!	!	!	!	!	!	!	!	!	!	!	!	!	!	!	!	!	!	!	!	!	!	!LO:LB:g=original	!	!	!	!	!
=10	=10	=10	=10	=10	=10	=10	=10	=10	=10	=10	=10	=10	=10	=10	=10	=10	=10	=10	=10	=10	=10	=10	=10	=10	=10	=10	=10	=10	=10	=10	=10	=10
!LO:TX:a:t=P:problem=mixed beam	!	!	!	!LO:SIC:s=4g-	!	!	!	!LO:SIC:s=4g-	!	!	!	!	!	!	!	!	!	!	!	!	!	!	!	!	!	!	!	!	!	!	!LO:SIC:s=4gg-	!
8B-/L	.	4e-\	.	4g\	.	4e-/	.	4g/	.	.	.	.	.	.	.	.	.	.	.	.	4B-/	.	4B-/	.	4ee-\	.	4gg-X\	.	4ee-\	.	4gg\	.
8B-/	.	.	.	.	.	.	.	.	.	.	.	.	.	.	.	.	.	.	.	.	.	.	.	.	.	.	.	.	.	.	.	.
8B-/	.	4d\	.	4f\	.	4d/	.	4f/	.	.	.	.	.	.	.	.	.	.	.	.	4B-/	.	4B-/	.	4dd\	.	4ff\	.	4dd\	.	4ff\	.
8B-/	.	.	.	.	.	.	.	.	.	.	.	.	.	.	.	.	.	.	.	.	.	.	.	.	.	.	.	.	.	.	.	.
8BB-\	.	4r	.	4r	.	4d/	.	4f/	f	.	.	.	.	.	.	.	.	.	.	.	4r	.	4r	.	4dd\	.	4ff\	.	4dd\	.	4ff\	.
8BB-\J	f	.	.	.	.	.	.	.	.	.	.	.	.	.	.	.	.	.	.	.	.	.	.	.	.	.	.	.	.	.	.	.
=11	=11	=11	=11	=11	=11	=11	=11	=11	=11	=11	=11	=11	=11	=11	=11	=11	=11	=11	=11	=11	=11	=11	=11	=11	=11	=11	=11	=11	=11	=11	=11	=11
!	!	!	!	!LO:TX:a:t=3	!	!	!	!	!	!	!	!	!	!	!	!	!	!	!	!	!LO:TX:a:t=5.	!	!LO:TX:a:t=5	!	!	!	!	!	!	!	!	!
!	!	!	!	!	!	!	!LO:DY:rj	!	!	!	!	!	!	!	!	!	!	!	!	!	!	!	!	!	!	!	!	!	!	!	!	!
!	!	!LO:N:vis=0	!	!LO:N:vis=0	!	!	!	!	!	!	!	!	!	!	!	!	!	!	!	!	!LO:N:vis=00	!	!LO:N:vis=00	!	!	!	!	!	!	!	!	!
8BB-/L	.	1.r	.	1.r	.	2e-/	f	4g-X/	.	.	.	.	.	.	.	.	.	.	.	.	0.r	.	0.r	.	2ee-\	.	4gg-X\	.	2ee-\	.	4gg-X\	.
8BB-/	.	.	.	.	.	.	.	.	.	.	.	.	.	.	.	.	.	.	.	.	.	.	.	.	.	.	.	.	.	.	.	.
8BB-/	.	.	.	.	.	.	.	2gn/	.	.	.	.	.	.	.	.	.	.	.	.	.	.	.	.	.	.	2gg\	.	.	.	2ggn\	.
8BB-/	.	.	.	.	.	.	.	.	.	.	.	.	.	.	.	.	.	.	.	.	.	.	.	.	.	.	.	.	.	.	.	.
8BB-/	.	.	.	.	.	4d-X/	.	.	.	.	.	.	.	.	.	.	.	.	.	.	.	.	.	.	4dd-X\	.	.	.	4dd-X\	.	.	.
8BB-/J	.	.	.	.	.	.	.	.	.	.	.	.	.	.	.	.	.	.	.	.	.	.	.	.	.	.	.	.	.	.	.	.
!LO:LB:g=original	!	!	!	!	!	!	!	!	!	!	!	!	!	!	!	!	!	!	!	!	!	!	!	!	!LO:LB:g=original	!	!	!	!	!	!	!
=12	=12	=12	=12	=12	=12	=12	=12	=12	=12	=12	=12	=12	=12	=12	=12	=12	=12	=12	=12	=12	=12	=12	=12	=12	=12	=12	=12	=12	=12	=12	=12	=12
!	!	!	!	!	!	!LO:SIC:s=8qd-	!	!	!	!	!	!	!	!	!	!	!	!	!	!	!	!	!	!	!	!	!	!	!LO:SIC:s=8qdd-	!	!	!
.	.	.	.	.	.	8qd/	.	.	.	.	.	.	.	.	.	.	.	.	.	.	.	.	.	.	.	.	8qgg/	.	8qdd/	.	8qgg/	.
8AA-/L	.	.	.	.	.	2c/	.	4a-/	.	.	.	.	.	.	.	.	.	.	.	.	.	.	.	.	2cc\	.	2aa-\	.	2cc\	.	2aa-\	.
8AA-/	.	.	.	.	.	.	.	.	.	.	.	.	.	.	.	.	.	.	.	.	.	.	.	.	.	.	.	.	.	.	.	.
8AA-/	.	.	.	.	.	.	.	4A-/	.	.	.	.	.	.	.	.	.	.	.	.	.	.	.	.	.	.	.	.	.	.	.	.
8AA-/	.	.	.	.	.	.	.	.	.	.	.	.	.	.	.	.	.	.	.	.	.	.	.	.	.	.	.	.	.	.	.	.
!	!LO:HP:b:i:t=po	!	!	!	!	!	!	!LO:TX:t=P:problem=złe wyświetlanie	!	!	!	!	!	!	!	!	!	!	!	!	!	!	!	!	!	!	!	!	!	!	!	!
8C/	p	.	.	.	.	4en/	.	4g/	p	.	.	.	.	.	.	.	.	.	.	.	.	.	.	.	4eeX\	.	4gg\	.	4een\	.	4gg\	.
8C/J	.	.	.	.	.	.	.	.	.	.	.	.	.	.	.	.	.	.	.	.	.	.	.	.	.	.	.	.	.	.	.	.
=13	=13	=13	=13	=13	=13	=13	=13	=13	=13	=13	=13	=13	=13	=13	=13	=13	=13	=13	=13	=13	=13	=13	=13	=13	=13	=13	=13	=13	=13	=13	=13	=13
!	!	!	!	!	!	!	!LO:DY:rj	!	!	!	!	!	!	!	!	!	!	!	!	!	!	!	!	!	!	!	!	!	!	!	!	!
!	!	!LO:N:vis=1	!	!LO:N:vis=1	!	!	!	!	!	!LO:N:vis=00	!	!	!LO:N:vis=00	!	!LO:N:vis=00	!	!	!LO:N:vis=00	!	!	!	!	!	!	!	!	!	!	!	!	!	!
8C/L	.	2.r	.	2.r	.	2f/	p	4a-/	.	0.rG	.	.	0.rc	.	0.re	.	.	0.rcc	.	.	.	.	.	.	2ff\	.	4aa-\	.	2ff\	.	4aa-\	.
8C/	.	.	.	.	.	.	.	.	.	.	.	.	.	.	.	.	.	.	.	.	.	.	.	.	.	.	.	.	.	.	.	.
8C/	.	.	.	.	.	.	.	2an/	.	.	.	.	.	.	.	.	.	.	.	.	.	.	.	.	.	.	2aa\	.	.	.	2aan\	.
8C/	.	.	.	.	.	.	.	.	.	.	.	.	.	.	.	.	.	.	.	.	.	.	.	.	.	.	.	.	.	.	.	.
8C/	.	.	.	.	.	4e-X/	.	.	.	.	.	.	.	.	.	.	.	.	.	.	.	.	.	.	4ee-X\	p	.	.	4ee-X\	.	.	.
8C/J	.	.	.	.	.	.	.	.	.	.	.	.	.	.	.	.	.	.	.	.	.	.	.	.	.	.	.	.	.	.	.	.
!	!	!	!	!	!	!LO:LB:g=original	!	!LO:LB:g=original	!	!	!	!	!	!	!	!	!	!	!	!	!	!	!	!	!	!	!	!	!	!	!	!
=14	=14	=14	=14	=14	=14	=14	=14	=14	=14	=14	=14	=14	=14	=14	=14	=14	=14	=14	=14	=14	=14	=14	=14	=14	=14	=14	=14	=14	=14	=14	=14	=14
!LO:TX:a:t=P:problem=mixed beam	!	!	!	!	!	!	!	!	!	!	!	!	!	!	!	!	!	!	!	!	!	!	!	!	!	!	!LO:SIC:s=8qaan	!LO:DY:rj	!	!	!LO:SIC:s=8qaan	!
.	.	.	.	.	.	.	.	.	.	.	.	.	.	.	.	.	.	.	.	.	.	.	.	.	8qee-/	.	8qaa-/	p	8qee-/	.	8qaa-/	.
8BB-/L	.	4r	.	4r	.	4e-/	.	4b-/	.	.	.	.	.	.	.	.	.	.	.	.	.	.	.	.	2dd\	.	2bb-\	.	2dd\	.	2bb-\	.
8BB-/	.	.	.	.	.	.	.	.	.	.	.	.	.	.	.	.	.	.	.	.	.	.	.	.	.	.	.	.	.	.	.	.
8BB-/	.	4r	.	4r	.	4d/	.	4f/	.	.	.	.	.	.	.	.	.	.	.	.	.	.	.	.	.	.	.	.	.	.	.	.
8BB-/	.	.	.	.	.	.	.	.	.	.	.	.	.	.	.	.	.	.	.	.	.	.	.	.	.	.	.	.	.	.	.	.
!	!	!	!	!	!LO:HP:b:i:t=fr	!	!	!	!	!	!	!	!	!	!	!	!	!	!	!	!	!	!	!	!	!	!	!	!	!	!	!
!	!	!	!	!LO:TX:t=P:problem=złe wyświetlanie	!	!LO:TX:t=P:problem=złe wyświetlanie	!	!LO:TX:t=P:problem=złe wyświetlanie	!	!	!	!	!	!	!	!	!	!	!	!	!	!	!	!	!	!	!	!	!	!	!	!
8B-\	.	4b-\	.	4b-\	f	4b-\	f	4b-/	f	.	.	.	.	.	.	.	.	.	.	.	.	.	.	.	4r	.	4r	.	4r	.	4r	.
!	!LO:DY:rj	!	!	!	!	!	!	!	!	!	!	!	!	!	!	!	!	!	!	!	!	!	!	!	!	!	!	!	!	!	!	!
8B-\J	f	.	.	.	.	.	.	.	.	.	.	.	.	.	.	.	.	.	.	.	.	.	.	.	.	.	.	.	.	.	.	.
!	!	!	!	!	!	!	!	!	!	!	!	!	!	!	!	!	!	!	!	!	!	!	!	!	!	!	!	!	!LO:LB:g=original	!	!	!
=15	=15	=15	=15	=15	=15	=15	=15	=15	=15	=15	=15	=15	=15	=15	=15	=15	=15	=15	=15	=15	=15	=15	=15	=15	=15	=15	=15	=15	=15	=15	=15	=15
!	!	!	!LO:DY:rj	!	!	!	!	!	!	!	!	!	!	!	!	!	!	!	!	!	!	!	!	!	!	!	!	!LO:HP:b:i:t=for:	!	!	!	!
!	!	!	!LO:HP:b:i:t=f:	!	!	!	!	!	!	!	!	!	!	!	!	!	!	!	!	!	!	!	!	!	!	!	!	!LO:DY:rj	!	!LO:DY:rj	!	!
8B-\L	.	4a-\	f	4bn\	.	(<4a-/	.	4bn\	.	.	.	.	.	.	.	.	.	.	.	.	2.r	.	2.r	.	4a-/	.	4bX\	f	4aa-\	f	4bbn\	f
8B-\	.	.	.	.	.	.	.	.	.	.	.	.	.	.	.	.	.	.	.	.	.	.	.	.	.	.	.	.	.	.	.	.
8B-\	.	4g\	.	4cc\	.	4g/	.	4cc\	.	.	.	.	.	.	.	.	.	.	.	.	.	.	.	.	4g/	.	4cc\	.	4gg\	.	4ccc\	.
8B-\	.	.	.	.	.	.	.	.	.	.	.	.	.	.	.	.	.	.	.	.	.	.	.	.	.	.	.	.	.	.	.	.
!	!	!	!	!	!	!	!	!	!	!	!	!	!	!	!	!	!	!	!	!	!	!	!	!	!	!LO:HP:b:i:t=for:	!	!	!	!	!	!
8B-\	.	[>4f\	.	4dd\	.	4f/)	.	[>4dd\	.	.	.	.	.	.	.	.	.	.	.	.	.	.	.	.	4f/	f	[>4dd\	.	[>4ff\	.	4ddd\	.
8B-\J	.	.	.	.	.	.	.	.	.	.	.	.	.	.	.	.	.	.	.	.	.	.	.	.	.	.	.	.	.	.	.	.
!	!	!	!	!	!	!	!	!	!	!	!	!	!	!	!	!	!	!	!	!	!	!	!	!	!	!	!	!	!	!	!LO:LB:g=original	!
=16	=16	=16	=16	=16	=16	=16	=16	=16	=16	=16	=16	=16	=16	=16	=16	=16	=16	=16	=16	=16	=16	=16	=16	=16	=16	=16	=16	=16	=16	=16	=16	=16
4E-\	.	4f\]	.	4dd\	.	4f/	.	4dd\]	.	.	.	.	.	.	.	.	.	.	.	.	4r	.	4r	.	4f/	.	4dd\]	.	4ff\]	.	4ddd\	.
!	!	!	!	!	!	!	!	!	!	!	!	!	!	!	!	!	!	!	!	!	!	!	!	!LO:DY:rj	!	!	!	!	!	!	!	!
4r	.	4g\	.	4ee-\	.	4g/	.	(>4ee-\	.	.	.	.	.	.	.	.	.	.	.	.	(>4g\	.	(>4ee-\	f	4g/	.	4ee-\	.	4gg\	.	4eee-\	.
!	!	!	!	!	!	!	!	!	!	!	!	!	!	!	!	!	!	!	!	!	!	!	!	!	!	!	!	!	!	!	!	!LO:DY:rj
4r	.	4b-\	.	4dd\	.	4a-/	.	4dd\)	.	.	.	.	.	.	.	.	.	.	.	.	4b-\)	.	4dd\)	.	4b-/	.	4dd\	.	4bb-\	.	4ddd\	p
=17	=17	=17	=17	=17	=17	=17	=17	=17	=17	=17	=17	=17	=17	=17	=17	=17	=17	=17	=17	=17	=17	=17	=17	=17	=17	=17	=17	=17	=17	=17	=17	=17
!	!	!	!	!	!	!	!	!	!	!LO:N:vis=00	!	!	!LO:N:vis=00	!	!LO:N:vis=00	!	!	!LO:N:vis=00	!	!	!	!	!	!	!	!	!	!	!	!	!	!
4E-\	.	4r	.	4r	.	4r	.	4r	.	0.r	.	.	0.r	.	0.r	.	.	0.r	.	.	4r	.	4r	.	4r	.	4r	.	4r	.	4r	.
4r	.	4a-\	.	4cc\	.	(<4a-/	.	(>4cc\	.	.	.	.	.	.	.	.	.	.	.	.	(>4a-\	.	(>4cc\	.	4a-/	.	4cc\	.	4aa-\	.	4ccc\	.
!	!	!	!	!	!	!	!	!	!	!	!	!	!	!	!	!	!	!	!	!	!LO:TX:a:t=e	!	!	!	!	!	!	!	!	!	!	!
4r	.	4g\	.	4b-\	.	4g/)	.	4b-\)	.	.	.	.	.	.	.	.	.	.	.	.	4g\)	.	4b-\)	.	4g/	.	4b-\	.	4gg\	.	4bb-\	.
=18	=18	=18	=18	=18	=18	=18	=18	=18	=18	=18	=18	=18	=18	=18	=18	=18	=18	=18	=18	=18	=18	=18	=18	=18	=18	=18	=18	=18	=18	=18	=18	=18
!LO:TX:a:t=P:2\right&colon;global:problem	!	!	!	!	!	!	!	!	!	!	!	!	!	!	!	!	!	!	!	!	!	!	!	!	!	!	!	!	!	!	!	!
2B-\	.	4r	.	4r	.	4r	.	4r	.	.	.	.	.	.	.	.	.	.	.	.	4r	.	4r	.	4r	.	4r	.	4r	.	4r	.
.	.	4f\	.	4a-\	.	(<4f/	.	(<4a-/	.	.	.	.	.	.	.	.	.	.	.	.	4f\	.	(>4a-\	.	4ff\	.	(>4aa-\	.	4ff\	.	4aa-\	.
4c\	.	4e-\	.	4g\	.	4e-/)	.	4g/)	.	.	.	.	.	.	.	.	.	.	.	.	4e-\	.	4g\)	.	4ee-\	.	4gg\)	.	4ee-\	.	4gg\	.
!	!	!LO:LB:g=original	!	!	!	!	!	!	!	!	!	!	!	!	!	!	!	!	!	!	!	!	!	!	!	!	!	!	!	!	!	!
=19	=19	=19	=19	=19	=19	=19	=19	=19	=19	=19	=19	=19	=19	=19	=19	=19	=19	=19	=19	=19	=19	=19	=19	=19	=19	=19	=19	=19	=19	=19	=19	=19
4A-\	.	4a-\	.	4a-\	.	8c/L	.	8r	.	.	.	.	.	.	.	.	.	.	.	.	8r	.	8r	.	8r	.	8r	.	4aa-\	.	4aa-\	.
.	.	.	.	.	.	8A-/J	.	8f/	.	.	.	.	.	.	.	.	.	.	.	.	8f\	.	8a-\	.	8ff\	.	8aa-`>\	.	.	.	.	.
4B-\	.	4b-\	.	4b-\	.	4G/	.	4e-/	.	.	.	.	.	.	.	.	.	.	.	.	4e-\	.	4g\	.	4ee-\	.	4gg\	.	4bb-\	.	4bb-\	.
4BB-/	.	4B-/	.	4B-/	.	4A-/	.	4d/	.	.	.	.	.	.	.	.	.	.	.	.	8B-/L	.	4f\	.	4dd\	.	4ff\	.	4b-/	.	4b-/	.
.	.	.	.	.	.	.	.	.	.	.	.	.	.	.	.	.	.	.	.	.	8B-/J	.	.	.	.	.	.	.	.	.	.	.
!LO:LB:g=original	!	!	!	!LO:LB:g=original	!	!	!	!	!	!	!	!	!	!	!	!	!	!	!	!	!	!	!	!	!	!	!LO:LB:g=original	!	!	!	!	!
=20	=20	=20	=20	=20	=20	=20	=20	=20	=20	=20	=20	=20	=20	=20	=20	=20	=20	=20	=20	=20	=20	=20	=20	=20	=20	=20	=20	=20	=20	=20	=20	=20
!	!	!	!LO:HP:b:i:t=po	!	!	!	!	!	!	!	!	!	!	!	!	!	!	!	!	!	!	!	!	!	!	!	!	!	!	!LO:HP:b:i:t=po	!	!
4EE-/	p	4e-\	p	4e-\	.	4G/	.	4r	.	.	.	.	.	.	.	.	.	.	.	.	4G/	.	4e-\	.	4ee-\	.	4ee-'>\	.	4ee-\	p	4ee-\	.
!	!	!	!	!	!LO:HP:b:i:t=po	!	!	!	!	!	!	!	!	!	!	!	!	!	!	!	!	!	!	!	!	!	!	!	!	!	!	!
4r	.	4g\	.	4ee-\	p	(>4cc\	p	4ee-\	.	.	.	.	.	.	.	.	.	.	.	.	4r	.	4r	.	4g/	.	(>4ee-\	.	4gg\	.	4eee-\	.
!	!	!	!	!	!	!	!	!	!LO:DY:rj	!	!	!	!	!	!	!	!	!	!	!	!	!	!	!	!	!	!	!	!	!	!	!LO:DY:rj
4r	.	4b-\	.	4dd\	.	4b-\)	.	4dd\	p	.	.	.	.	.	.	.	.	.	.	.	4r	.	4r	.	4b-/	.	4dd\)	.	4bb-\	.	4ddd\	p
*	*	*	*	*	*	*	*	*custos:cc	*	*	*	*	*	*	*	*	*	*	*	*	*	*	*	*	*	*	*	*	*	*	*	*
!	!	!	!	!	!	!	!	!LO:LB:g=original	!	!	!	!	!	!	!	!	!	!	!	!	!	!	!	!	!	!	!	!	!	!	!	!
=21	=21	=21	=21	=21	=21	=21	=21	=21	=21	=21	=21	=21	=21	=21	=21	=21	=21	=21	=21	=21	=21	=21	=21	=21	=21	=21	=21	=21	=21	=21	=21	=21
!	!	!	!	!	!	!	!	!	!	!LO:N:vis=00	!	!	!LO:N:vis=00	!	!LO:N:vis=00	!	!	!LO:N:vis=00	!	!	!	!	!	!	!	!	!	!	!	!	!	!
4EE-/	.	4r	.	4r	.	4r	.	4r	.	0.r	.	.	0.r	.	0.r	.	.	0.r	.	.	4E-/	.	4e-\	.	4r	.	4r	.	4r	.	4r	.
4r	.	4a-\	.	4cc\	.	(<4a-/	.	4cc\	.	.	.	.	.	.	.	.	.	.	.	.	4r	.	4r	.	4a-/	.	(>4cc\	.	4aa-\	.	4ccc\	.
4r	.	4g\	.	4b-\	.	4g/)	.	4b-\	.	.	.	.	.	.	.	.	.	.	.	.	4r	.	4r	.	4g/	.	4b-\)	.	4gg\	.	4bb-\	.
!	!	!	!	!	!	!LO:LB:g=original	!	!	!	!	!	!	!	!	!	!	!	!	!	!	!	!	!	!	!	!	!	!	!LO:LB:g=original	!	!	!
=22	=22	=22	=22	=22	=22	=22	=22	=22	=22	=22	=22	=22	=22	=22	=22	=22	=22	=22	=22	=22	=22	=22	=22	=22	=22	=22	=22	=22	=22	=22	=22	=22
2BB-/	.	4r	.	4r	.	4r	.	4r	.	.	.	.	.	.	.	.	.	.	.	.	4B-/	.	4B-/	.	4r	.	4r	.	4r	.	4r	.
.	.	4f\	.	4a-\	.	(<4f/	.	4a-/	.	.	.	.	.	.	.	.	.	.	.	.	4r	.	4r	.	4ff\	.	(>4aa-\	.	4ff\	.	4aa-\	.
4C/	.	4e-\	.	4g\	.	4e-/)	.	4g/	.	.	.	.	.	.	.	.	.	.	.	.	4r	.	4r	.	4ee-\	.	4gg\)	.	4ee-\	.	4gg\	.
*	*	*	*	*	*	*	*	*	*	*	*	*	*	*	*	*	*	*	*	*	*	*	*	*	*	*	*	*	*	*	*custos:b-	*
!	!	!	!	!	!	!	!	!	!	!	!	!	!	!	!	!	!	!	!	!	!LO:LB:g=original	!	!LO:LB:g=original	!	!LO:LB:g=original	!	!	!	!	!	!LO:LB:g=original	!
=23	=23	=23	=23	=23	=23	=23	=23	=23	=23	=23	=23	=23	=23	=23	=23	=23	=23	=23	=23	=23	=23	=23	=23	=23	=23	=23	=23	=23	=23	=23	=23	=23
!	!	!	!	!	!	!	!LO:DY:rj	!	!	!	!	!	!	!	!	!	!	!	!	!	!	!	!	!	!	!	!	!	!	!	!	!
!	!	!	!	!	!LO:HP:b:i:t=fr	!	!	!	!	!	!	!	!	!	!	!	!	!	!	!	!	!	!	!	!	!	!	!	!	!	!	!
4AA-/	f	4A-/	.	4A-/	f	8c/L	f	8r	.	.	.	.	.	.	.	.	.	.	.	.	8r	.	8r	.	8r	.	8r	.	4aa-\	.	4aa-\	.
.	.	.	.	.	.	8A-/J	.	8f/	f	.	.	.	.	.	.	.	.	.	.	.	8f\	.	8a-\	.	8ff\	.	8aa-`>\	.	.	.	.	.
!	!	!	!	!	!	!	!	!	!	!	!	!	!	!	!	!	!	!	!	!	!	!	!	!	!	!	!	!	!	!	!	!LO:DY:rj
4.BB-/	.	4.B-/	.	4.B-/	.	4G/	.	4e-/	.	.	.	.	.	.	.	.	.	.	.	.	4e-\	.	4g\	.	4ee-\	.	4gg\	.	4.bb-\	.	4.bb-\	f
.	.	.	.	.	.	4A-/	.	4d/	.	.	.	.	.	.	.	.	.	.	.	.	8B-/L	.	4f\	.	4dd\	.	4ff\	.	.	.	.	.
!	!	!	!	!	!	!	!	!	!	!	!	!	!	!	!	!	!	!	!	!	!	!	!	!	!	!	!	!	!	!LO:DY:rj	!	!
8BB-/	.	8B-/	f	8B-/	.	.	.	.	.	.	.	.	.	.	.	.	.	.	.	.	8B-/J	.	.	.	.	.	.	.	8bb-\	f	8bb-\	.
=24	=24	=24	=24	=24	=24	=24	=24	=24	=24	=24	=24	=24	=24	=24	=24	=24	=24	=24	=24	=24	=24	=24	=24	=24	=24	=24	=24	=24	=24	=24	=24	=24
(<4EE-/	.	4E-/	.	4E-/	.	8G/	.	8e-`</	.	.	.	.	.	.	.	.	.	.	.	.	4G/	.	4e-\	.	2.ee-\	p	2.gg\	p	4ee-\	.	4eee-\	.
.	.	.	.	.	.	8A-/L	.	(<8c/L	.	.	.	.	.	.	.	.	.	.	.	.	.	.	.	.	.	.	.	.	.	.	.	.
4EE-/	.	4r	.	4r	.	8G/	.	8B-/	.	.	.	.	.	.	.	.	.	.	.	.	4r	.	4r	.	.	.	.	.	4r	.	4r	.
.	.	.	.	.	.	8A-/	.	8c/	.	.	.	.	.	.	.	.	.	.	.	.	.	.	.	.	.	.	.	.	.	.	.	.
4EE-/)	.	4r	.	4r	.	8B-/	.	8d-X/	.	.	.	.	.	.	.	.	.	.	.	.	4r	.	4r	.	.	.	.	.	4r	.	4r	.
.	.	.	.	.	.	8A-/J	.	8c/J)	.	.	.	.	.	.	.	.	.	.	.	.	.	.	.	.	.	.	.	.	.	.	.	.
=25	=25	=25	=25	=25	=25	=25	=25	=25	=25	=25	=25	=25	=25	=25	=25	=25	=25	=25	=25	=25	=25	=25	=25	=25	=25	=25	=25	=25	=25	=25	=25	=25
!	!	!	!	!	!	!	!	!	!	!	!	!	!	!	!LO:TX:a:t=P:2\right&colon;global:problem	!	!	!LO:TX:a:t=P:2\right&colon;global:problem	!	!	!	!	!	!	!	!	!	!	!	!	!	!
!	!	!	!	!	!	!	!	!	!	!LO:TX:a:t=P:2\right&colon;global:problem	!	!	!LO:TX:a:t=P:2\right&colon;global:problem	!	!LO:TX:a:i:t=Tutti	!	!	!LO:TX:a:i:t=Tutti	!	!	!	!	!	!	!	!	!	!	!	!LO:HP:b:i:t=po	!	!
!	!	!	!LO:HP:b:i:t=p:	!	!LO:HP:b:i:t=po	!	!	!	!	!	!	!	!	!	!	!	!	!	!	!	!	!	!	!	!	!	!	!	!	!LO:DY:rj	!	!
8EE-/	.	4e-\	p	(>4e-\	p	8G/	.	8B-/	.	[<2.E-\	Re-	.	2.B-\	Re-	[<2.e-\	Re-	.	[<2.g\	Re-	.	2.r	.	2.r	.	2.e-/	.	2.ee-\	.	4ee-\	p	(>4ee-\	p
8E-\L	p	.	.	.	.	(<8g/L	.	(>8ee-\L	.	.	.	.	.	.	.	.	.	.	.	.	.	.	.	.	.	.	.	.	.	.	.	.
!	!	!	!	!	!	!	!	!	!LO:DY:rj	!	!	!	!	!	!	!	!	!	!	!	!LO:TX:a:t=1	!	!LO:TX:a:t=1.	!	!	!	!	!	!	!	!	!
8E-\	.	4e-\	.	4e-\	.	8g/	p	8ee-\	p	.	.	.	.	.	.	.	.	.	.	.	.	.	.	.	.	.	.	.	4ee-\	.	4eee-\	.
8E-\	.	.	.	.	.	8g/	.	8ee-\	.	.	.	.	.	.	.	.	.	.	.	.	.	.	.	.	.	.	.	.	.	.	.	.
8E-\	.	4e-\	.	4e-\)	.	8g/	.	8ee-\	.	.	.	.	.	.	.	.	.	.	.	.	.	.	.	.	.	.	.	.	4ee-\	.	4eee-\)	.
8E-\J	.	.	.	.	.	8g/J)	.	8ee-\J)	.	.	.	.	.	.	.	.	.	.	.	.	.	.	.	.	.	.	.	.	.	.	.	.
=26	=26	=26	=26	=26	=26	=26	=26	=26	=26	=26	=26	=26	=26	=26	=26	=26	=26	=26	=26	=26	=26	=26	=26	=26	=26	=26	=26	=26	=26	=26	=26	=26
!	!	!	!	!	!	!	!	!	!	!LO:TX:a:t=P:problem=4,8 middle or right&colon;global	!	!	!LO:TX:a:t=P:problem=4,8 middle or right&colon;global	!	!LO:TX:a:t=P:problem=4,8 middle or right&colon;global	!	!	!LO:TX:a:t=P:problem=4,8 middle or right&colon;global	!	!	!	!	!	!	!	!	!	!	!	!	!	!
8E-\L	.	4e-\	.	(>4e-\	.	8G/	.	(>8b-\L	.	4E-\]	.	.	4B-\	.	4e-\]	.	.	4g\]	.	.	4r	.	4r	.	2.g/	.	2.b-\	.	2.ee-\	.	2.eee-\	.
8E-\	.	.	.	.	.	(<8g/L	.	8b-\	.	.	.	.	.	.	.	.	.	.	.	.	.	.	.	.	.	.	.	.	.	.	.	.
8E-\	.	4e-\	.	4e-\	.	8g/	.	8b-\	.	4E-\	-qui-	.	4B-\	-qui-	4e-\	-qui-	.	4g\	-qui-	.	4r	.	4r	.	.	.	.	.	.	.	.	.
8E-\	.	.	.	.	.	8g/	.	8b-\	.	.	.	.	.	.	.	.	.	.	.	.	.	.	.	.	.	.	.	.	.	.	.	.
8E-\	.	4e-\	.	4e-\)	.	8g/	.	8b-\	.	4E-\	-em	.	4B-\	-em	4e-\	-em	.	4g\	-em	.	4g\	.	4b-\	.	.	.	.	.	.	.	.	.
8E-\J	.	.	.	.	.	8g/J)	.	8b-\J)	.	.	.	.	.	.	.	.	.	.	.	.	.	.	.	.	.	.	.	.	.	.	.	.
*	*	*	*	*	*	*	*	*custos:b-	*	*	*	*	*	*	*	*	*	*	*	*	*	*	*	*	*	*	*	*	*	*	*	*
!	!	!	!	!	!	!	!	!LO:LB:g=original	!	!	!	!	!	!	!	!	!	!	!	!	!	!	!	!	!	!	!	!	!	!	!	!
=27	=27	=27	=27	=27	=27	=27	=27	=27	=27	=27	=27	=27	=27	=27	=27	=27	=27	=27	=27	=27	=27	=27	=27	=27	=27	=27	=27	=27	=27	=27	=27	=27
8E-\L	.	4e-\	.	(>4e-\	.	8a-/L	.	(>8cc\L	.	2E-\	ae-	.	2c\	ae-	2e-\	ae-	.	2a-\	ae-	.	4a-\	.	4cc\	.	2a-/	.	2cc\	.	2.ee-\	.	2.eee-\	.
8E-\	.	.	.	.	.	8a-/	.	8cc\	.	.	.	.	.	.	.	.	.	.	.	.	.	.	.	.	.	.	.	.	.	.	.	.
8E-\	.	4e-\	.	4e-\	.	8a-/	.	8cc\	.	.	.	.	.	.	.	.	.	.	.	.	8f\L	.	8a-\L	.	.	.	.	.	.	.	.	.
8E-\	.	.	.	.	.	8a-/	.	8cc\	.	.	.	.	.	.	.	.	.	.	.	.	8g\J	.	8b-\J	.	.	.	.	.	.	.	.	.
8E-\	.	4e-\	.	4e-\)	.	8a-/	.	8cc\	.	4E-\	.	.	4c\	.	4e-\	.	.	4a-\	.	.	4a-\	.	4cc\	.	4a-/	.	4cc\	.	.	.	.	.
8E-\J	.	.	.	.	.	8a-/J	.	8cc\J)	.	.	.	.	.	.	.	.	.	.	.	.	.	.	.	.	.	.	.	.	.	.	.	.
!LO:LB:g=original	!	!	!	!	!	!LO:LB:g=original	!	!	!	!	!	!	!	!	!	!	!	!	!	!	!	!	!	!	!	!	!	!	!	!	!	!
=28	=28	=28	=28	=28	=28	=28	=28	=28	=28	=28	=28	=28	=28	=28	=28	=28	=28	=28	=28	=28	=28	=28	=28	=28	=28	=28	=28	=28	=28	=28	=28	=28
4E-\	.	4e-\	.	4e-\	.	4a-/	.	4cc\	.	4E-\	-ter-	.	4c\	-ter-	4e-\	-ter-	.	4a-\	-ter-	.	4a-\	.	4cc\	.	4a-/	.	4cc\	.	4ee-\	.	4eee-\	.
4E-\	.	4e-\	f	4e-\	.	4g/	.	4b-\	.	4E-\	-nam	.	4B-\	-nam	4e-\	-nam	.	4g\	-nam	.	4g\	.	4b-\	.	4g/	.	4b-\	.	4ee-\	.	4eee-\	.
4E-\	f	4E-/	.	4E-/	.	4g/	f	4ee-\	f	4r	.	.	4r	.	4r	.	.	4r	.	.	4r	.	4r	.	4g/	.	4ee-\	.	4ee-\	f	4ee-\	.
!	!	!LO:LB:g=original	!	!LO:LB:g=original	!	!	!	!	!	!	!	!	!	!	!	!	!	!	!	!	!	!	!	!	!	!	!	!	!	!	!	!
=29	=29	=29	=29	=29	=29	=29	=29	=29	=29	=29	=29	=29	=29	=29	=29	=29	=29	=29	=29	=29	=29	=29	=29	=29	=29	=29	=29	=29	=29	=29	=29	=29
!	!	!	!	!	!	!	!	!	!	!	!	!	!	!	!	!	!	!	!	!	!	!	!	!	!	!	!	!LO:HP:b:i:t=for:	!	!	!	!
!	!	!	!	!	!LO:HP:b:i:t=for	!	!	!	!	!	!	!	!	!	!	!	!	!	!	!	!	!	!	!	!	!	!	!LO:DY:rj	!	!	!	!
4B-\	.	4B-/	.	4B-/	f	4g/	.	4ee-\	.	4r	.	.	4r	.	4r	.	.	4r	.	.	4r	.	4r	.	4g/	.	4ee-\	f	4bb-\	.	4bb-\	.
!	!	!	!	!	!	!	!	!	!	!	!	!	!	!	!	!	!	!	!	!	!	!	!	!	!	!	!	!	!	!	!	!LO:DY:rj
4BB-/	.	4B-/	.	4B-/	.	4f/	.	4dd\	.	4r	.	.	4r	.	4r	.	.	4r	.	.	4r	.	4r	.	4f/	.	4dd\	.	4bb-\	.	4bb-\	f
4E-\	.	4e-\	.	4e-\	.	4ee-\	.	4gg\	.	4E-\	ae-	.	4B-\	ae-	4e-\	ae-	.	4g\	ae-	.	4e-\	.	4g\	.	4ee-\	.	4gg\	.	4ee-\	.	4eee-\	.
!	!	!	!	!	!	!	!	!	!	!LO:LB:g=original	!	!	!LO:LB:g=original	!	!LO:LB:g=original	!	!	!LO:LB:g=original	!	!	!	!	!	!	!	!	!	!	!LO:LB:g=original	!	!	!
=30	=30	=30	=30	=30	=30	=30	=30	=30	=30	=30	=30	=30	=30	=30	=30	=30	=30	=30	=30	=30	=30	=30	=30	=30	=30	=30	=30	=30	=30	=30	=30	=30
4B-\	.	4b-\	.	4b-\	.	4ee-\	.	4gg\	.	4.B-\	-ter-	.	4.B-\	-ter-	4.e-\	-ter-	.	4.g\	-ter-	.	4e-\	.	4g\	.	4ee-\	.	4gg\	.	4bb-\	.	4bb-\	.
4BB-/	.	4B-/	.	4B-/	.	4dd\	.	4ff\	.	.	.	.	.	.	.	.	.	.	.	.	4B-/	.	4f\	.	4dd\	.	4ff\	.	4b-/	.	4bb-\	.
.	.	.	.	.	.	.	.	.	.	8BB-/	.	.	8B-\	.	8d\	.	.	8f/	.	.	.	.	.	.	.	.	.	.	.	.	.	.
4BB-/	.	4B-/	.	4B-/	.	4d/	.	4f/	.	4BB-/	-nam	.	4B-\	-nam	4d\	-nam	.	4f/	-nam	.	4r	.	4r	.	8r	.	8r	.	4b-/	.	4bb-\	.
.	.	.	.	.	.	.	.	.	.	.	.	.	.	.	.	.	.	.	.	.	.	.	.	.	8dd\	.	8ff\	.	.	.	.	.
!	!	!	!	!	!	!	!	!	!	!	!	!	!	!	!	!	!	!	!	!	!	!	!	!	!	!	!	!	!	!	!LO:LB:g=original	!
=31	=31	=31	=31	=31	=31	=31	=31	=31	=31	=31	=31	=31	=31	=31	=31	=31	=31	=31	=31	=31	=31	=31	=31	=31	=31	=31	=31	=31	=31	=31	=31	=31
!	!	!	!	!	!	!	!	!	!	!LO:TX:a:t=5	!	!	!LO:TX:a:t=5	!	!	!	!	!	!	!	!	!	!	!	!	!	!	!	!	!	!	!
!	!	!	!	!	!	!	!	!	!	!LO:N:vis=00	!	!	!LO:N:vis=00	!	!	!	!	!	!	!	!	!	!	!	!	!	!	!	!	!	!	!
4BB-/	.	4B-/	.	4B-/	.	4e-/	.	4g/	.	0.r	.	.	0.r	.	2.r	.	.	2.r	.	.	2.r	.	2.r	.	4ee-\	.	4gg\	.	4b-/	.	4bb-\	.
8B-\L	.	4B-/	.	4B-/	.	4d/	.	4f/	.	.	.	.	.	.	.	.	.	.	.	.	.	.	.	.	4dd\	.	4ff\	.	4b-/	.	4bb-\	.
!	!	!	!	!	!	!	!	!	!	!	!	!	!	!	!LO:TX:a:t=1.	!	!	!LO:TX:a:t=1.	!	!	!LO:TX:a:t=1.	!	!LO:TX:a:t=1	!	!	!	!	!	!	!	!	!
8A-\	.	.	.	.	.	.	.	.	.	.	.	.	.	.	.	.	.	.	.	.	.	.	.	.	.	.	.	.	.	.	.	.
!	!LO:DY:rj	!	!	!	!	!	!	!	!	!	!	!	!	!	!	!	!	!	!	!	!	!	!	!	!	!	!	!	!	!	!	!
8G\	p	4r	.	4r	.	4r	.	4r	.	.	.	.	.	.	.	.	.	.	.	.	.	.	.	.	4r	.	4r	.	4r	.	4r	.
8F\J	.	.	.	.	.	.	.	.	.	.	.	.	.	.	.	.	.	.	.	.	.	.	.	.	.	.	.	.	.	.	.	.
!	!	!	!	!	!	!	!	!	!	!	!	!	!	!	!	!	!	!	!	!	!	!	!	!	!	!	!LO:LB:g=original	!	!	!	!	!
=32	=32	=32	=32	=32	=32	=32	=32	=32	=32	=32	=32	=32	=32	=32	=32	=32	=32	=32	=32	=32	=32	=32	=32	=32	=32	=32	=32	=32	=32	=32	=32	=32
!	!	!LO:TX:a:t=P:2\right&colon;global:problem	!	!LO:TX:a:t=P:2\right&colon;global:problem	!	!	!	!	!	!	!	!	!	!	!LO:TX:a:i:t=Solo	!	!	!LO:TX:a:i:t=Solo	!	!	!	!	!	!	!	!	!	!	!	!	!	!
!	!	!	!LO:DY:rj	!	!LO:DY:rj	!	!LO:DY:rj	!	!	!	!	!	!	!	!	!	!	!	!	!	!	!	!	!LO:HP:b:i:t=p:	!	!	!	!	!	!LO:HP:b:i:t=p:	!	!
!	!	!	!LO:HP:b:i:t=p:	!	!LO:HP:b:i:t=po	!	!	!	!	!	!	!	!	!	!	!	!	!	!	!	!	!	!	!LO:DY:rj	!	!	!	!	!	!LO:DY:rj	!	!
4E-\	.	2g\	p	2b-\	p	8g/L	p	8b-\L	p	.	.	.	.	.	4.g\	Re-	.	4.b-\	Re-	.	[<2.e-\	.	[<2.e-\	p	2g/	.	4.b-\	.	2gg\	p	2bb-\	p
.	.	.	.	.	.	8g/	.	8b-\	.	.	.	.	.	.	.	.	.	.	.	.	.	.	.	.	.	.	.	.	.	.	.	.
4E-\	.	.	.	.	.	8g/	.	8b-\	.	.	.	.	.	.	.	.	.	.	.	.	.	.	.	.	.	.	.	.	.	.	.	.
.	.	.	.	.	.	8g/	.	8b-\	.	.	.	.	.	.	8g\	-qui-	.	8b-\	-qui-	.	.	.	.	.	.	.	8b-\	.	.	.	.	.
4E-\	.	4g\	.	4ee-\	.	8g/	.	8b-\	.	.	.	.	.	.	4g\	-em	.	4ee-\	-em	.	.	.	.	.	4g/	.	4ee-\	.	4gg\	.	4eee-\	.
.	.	.	.	.	.	8g/J	.	8b-\J	.	.	.	.	.	.	.	.	.	.	.	.	.	.	.	.	.	.	.	.	.	.	.	.
!	!	!	!	!	!	!	!	!	!	!	!	!	!	!	!	!	!	!	!	!	!LO:LB:g=original	!	!	!	!	!	!	!	!	!	!	!
=33	=33	=33	=33	=33	=33	=33	=33	=33	=33	=33	=33	=33	=33	=33	=33	=33	=33	=33	=33	=33	=33	=33	=33	=33	=33	=33	=33	=33	=33	=33	=33	=33
.	.	.	.	.	.	.	.	.	.	.	.	.	.	.	.	.	.	8qdd/	.	.	.	.	.	.	.	.	.	.	.	.	.	.
4E-\	.	2a-\	.	2cc\	.	8a-/L	.	8cc\L	.	.	.	.	.	.	4.a-\	ae-	.	4.cc\	ae-	.	2.e-\_<	.	2.e-\]	.	2a-/	.	2cc\	.	2aa-\	.	2ccc\	.
.	.	.	.	.	.	8a-/	.	8cc\	.	.	.	.	.	.	.	.	.	.	.	.	.	.	.	.	.	.	.	.	.	.	.	.
4E-\	.	.	.	.	.	8a-/	.	8cc\	.	.	.	.	.	.	.	.	.	.	.	.	.	.	.	.	.	.	.	.	.	.	.	.
.	.	.	.	.	.	8a-/	.	8cc\	.	.	.	.	.	.	8g\	-ter-	.	8b-\	-ter-	.	.	.	.	.	.	.	.	.	.	.	.	.
4E-\	.	4g\	.	4b-\	.	8g/	.	8b-\	.	.	.	.	.	.	4g\	-nam	.	4b-\	-nam	.	.	.	.	.	4g/	.	4b-\	.	4gg\	.	4bb-\	.
.	.	.	.	.	.	8g/J	.	8b-\J	.	.	.	.	.	.	.	.	.	.	.	.	.	.	.	.	.	.	.	.	.	.	.	.
!	!	!	!	!	!	!	!	!LO:LB:g=original	!	!	!	!	!	!	!	!	!	!	!	!	!	!	!LO:LB:g=original	!	!	!	!	!	!	!	!	!
=34	=34	=34	=34	=34	=34	=34	=34	=34	=34	=34	=34	=34	=34	=34	=34	=34	=34	=34	=34	=34	=34	=34	=34	=34	=34	=34	=34	=34	=34	=34	=34	=34
4E-\	.	4.a-\	.	4.cc\	.	8a-/L	.	8cc\L	.	.	.	.	.	.	4.a-\	do-	.	4.cc\	do-	.	2.e-\_<	.	[<2.e-\	.	4.a-/	.	4.cc\	.	4.aa-\	.	4.ccc\	.
.	.	.	.	.	.	8a-/	.	8cc\	.	.	.	.	.	.	.	.	.	.	.	.	.	.	.	.	.	.	.	.	.	.	.	.
4E-\	.	.	.	.	.	8a-/	.	8cc\	.	.	.	.	.	.	.	.	.	.	.	.	.	.	.	.	.	.	.	.	.	.	.	.
.	.	8a-\	.	8cc\L	.	8a-/	.	8cc\	.	.	.	.	.	.	8a-\	-na	.	8cc\	-na	.	.	.	.	.	8a-/	.	8cc\	.	8aa-\	.	8ccc\	.
4E-\	.	4g\	.	8b-\	.	8g/	.	8b-\	.	.	.	.	.	.	8g\	e-	.	8b-\	e-	.	.	.	.	.	4g/	.	8b-\L	.	4gg\	.	8bb-\L	.
.	.	.	.	8ee-\J	.	8g/J	.	8b-\J	.	.	.	.	.	.	8g\	-is	.	8ee-\	-is	.	.	.	.	.	.	.	8ee-\J	.	.	.	8eee-\J	.
!	!	!	!	!	!	!	!	!	!	!	!	!	!	!	!	!	!	!	!	!	!	!	!	!	!LO:LB:g=original	!	!	!	!	!	!	!
=35	=35	=35	=35	=35	=35	=35	=35	=35	=35	=35	=35	=35	=35	=35	=35	=35	=35	=35	=35	=35	=35	=35	=35	=35	=35	=35	=35	=35	=35	=35	=35	=35
.	.	.	.	.	.	.	.	.	.	.	.	.	.	.	.	.	.	8qdd/	.	.	.	.	.	.	.	.	.	.	.	.	.	.
!	!	!	!	!	!	!	!	!	!	!LO:N:vis=1	!	!	!LO:N:vis=1	!	!	!	!	!	!	!	!	!	!	!	!	!	!	!	!	!	!	!
4E-\	.	2a-\	.	2cc\	.	8a-/L	.	8cc\L	.	2.r	.	.	2.r	.	2a-\	Do-	.	2cc\	Do-	.	2e-\]	.	2e-\]	.	2a-/	.	2cc\	.	2aa-\	.	2ccc\	.
.	.	.	.	.	.	8a-/	.	8cc\	.	.	.	.	.	.	.	.	.	.	.	.	.	.	.	.	.	.	.	.	.	.	.	.
4E-\	.	.	.	.	.	8a-/	.	8cc\	.	.	.	.	.	.	.	.	.	.	.	.	.	.	.	.	.	.	.	.	.	.	.	.
.	.	.	.	.	.	8a-/	.	8cc\	.	.	.	.	.	.	.	.	.	.	.	.	.	.	.	.	.	.	.	.	.	.	.	.
4E-\	.	4g\	.	4b-\	.	8g/	.	8b-\	.	.	.	.	.	.	4g\	.	.	4b-\	.	.	4e-\	.	4e-\	.	4g/	.	4b-\	.	4gg\	.	4bb-\	.
.	.	.	.	.	.	8g/J	.	8b-\J	.	.	.	.	.	.	.	.	.	.	.	.	.	.	.	.	.	.	.	.	.	.	.	.
!	!	!	!	!	!	!LO:LB:g=original	!	!	!	!	!	!	!	!	!	!	!	!LO:LB:g=original	!	!	!	!	!	!	!	!	!	!	!	!	!	!
=36	=36	=36	=36	=36	=36	=36	=36	=36	=36	=36	=36	=36	=36	=36	=36	=36	=36	=36	=36	=36	=36	=36	=36	=36	=36	=36	=36	=36	=36	=36	=36	=36
!	!	!	!	!	!	!	!	!	!	!	!	!	!	!	!LO:TX:i:a:t=Tutti	!	!	!	!	!	!	!	!	!	!	!	!	!	!	!	!	!
.	.	.	.	.	.	.	.	.	.	.	.	.	.	.	.	.	.	.	.	.	.	.	.	.	.	.	8qbb-/	.	.	.	.	.
!LO:TX:a:t=P:problem=złe wyświetlanie	!	!	!	!	!	!	!	!	!	!	!	!	!	!	!	!	!	!	!	!	!	!	!	!	!	!	!	!	!	!	!	!
4F\	f	4r	.	4r	.	4r	.	4r	.	4r	.	.	4r	.	2f\	.	.	2a-\	.	.	4r	.	4r	.	2ff\	.	2aa-\	.	4r	.	4r	.
4D\	.	4d\	.	4d\	.	4f/	.	4a-/	f	4D\	Do-	.	4B-\	Do-	.	.	.	.	.	.	4BB-/	.	4BB-/	.	.	.	.	.	4dd\	.	4ddd\	.
!	!	!	!	!	!	!	!LO:DY:rj	!	!	!	!	!	!	!	!	!	!	!	!	!	!	!	!	!	!	!	!	!	!	!	!	!
4E-\	.	4e-\	.	4e-\	.	4e-/	f	4g/	.	4E-\	.	.	4B-\	.	4e-\	.	.	4g\	.	.	4E-/	.	4E-/	.	4ee-\	.	4gg\	.	4ee-\	.	4eee-\	.
=37	=37	=37	=37	=37	=37	=37	=37	=37	=37	=37	=37	=37	=37	=37	=37	=37	=37	=37	=37	=37	=37	=37	=37	=37	=37	=37	=37	=37	=37	=37	=37	=37
4E-\	.	4e-\	.	4e-\	.	4e-/	.	4g/	.	4E-\	-mi-	.	4B-\	-mi-	4e-\	-mi-	.	4g/	-mi-	.	4E-/	.	4E-/	.	4ee-\	.	4gg\	.	4ee-\	.	4eee-\	.
4BB-/	p	4B-/	.	4B-/	.	4d/	.	4f/	.	4BB-/	-ne	.	4B-\	-ne	4d\	-ne	.	4f/	-ne	.	4BB-/	.	4BB-/	.	4dd\	.	4ff\	.	4bb-\	.	4bb-\	.
4BB-/	.	4r	.	4r	.	4e-/	.	4g-X/	.	4r	.	.	4r	.	4r	.	.	4r	.	.	4r	.	4r	.	4r	.	4r	.	4r	.	4r	.
*	*	*	*	*	*	*	*	*	*	*	*	*	*	*	*	*	*	*	*	*	*	*	*	*	*	*	*	*	*	*	*custos:b-	*
!	!	!	!	!	!	!	!	!	!	!	!	!	!	!	!	!	!	!	!	!	!	!	!	!	!	!	!	!	!	!	!LO:LB:g=original	!
!LO:LB:g=original	!	!LO:LB:g=original	!	!LO:LB:g=original	!	!	!	!	!	!	!	!	!	!	!LO:LB:g=original	!	!	!	!	!	!	!	!	!	!	!	!	!	!LO:LB:g=original	!	!	!
=38	=38	=38	=38	=38	=38	=38	=38	=38	=38	=38	=38	=38	=38	=38	=38	=38	=38	=38	=38	=38	=38	=38	=38	=38	=38	=38	=38	=38	=38	=38	=38	=38
!	!	!LO:TX:a:t=2.	!	!	!	!	!	!LO:SIC:s=4g-	!	!LO:TX:a:t=6	!	!	!LO:TX:a:t=6	!	!LO:TX:i:a:t=Solo	!	!	!	!	!	!LO:TX:a:t=6.	!	!LO:TX:a:t=6	!	!	!	!	!	!	!	!	!
!	!	!	!	!	!	!	!LO:DY:rj	!	!	!	!	!	!	!	!	!	!	!	!	!	!	!	!	!	!	!	!	!	!	!	!	!
!	!	!LO:N:vis=0	!	!LO:N:vis=0	!	!	!	!	!	!LO:N:vis=00	!	!	!LO:N:vis=00	!	!	!	!	!	!	!	!LO:N:vis=00	!	!LO:N:vis=00	!	!	!	!	!	!	!	!	!
4BB-/	.	1.r	.	1.r	.	4e-/	p	4g/	p	0.r	.	.	0.r	.	4r	.	.	4r	.	.	0.r	.	0.r	.	4r	.	4r	.	4r	.	4r	.
4BB-/	.	.	.	.	.	4d/	.	4f/	.	.	.	.	.	.	4r	.	.	4r	.	.	.	.	.	.	4r	.	4r	.	4r	.	4r	.
8B-\L	.	.	.	.	.	4d/	.	4f/	.	.	.	.	.	.	4d\	et	.	4f/	et	.	.	.	.	.	4dd\	.	4ff\	.	4dd\	.	4ff\	.
8B-\J	.	.	.	.	.	.	.	.	.	.	.	.	.	.	.	.	.	.	.	.	.	.	.	.	.	.	.	.	.	.	.	.
=39	=39	=39	=39	=39	=39	=39	=39	=39	=39	=39	=39	=39	=39	=39	=39	=39	=39	=39	=39	=39	=39	=39	=39	=39	=39	=39	=39	=39	=39	=39	=39	=39
8B-\L	.	.	.	.	.	2e-/	.	4g-X/	.	.	.	.	.	.	4e-\	lux	.	4g-X\	Lux	.	.	.	.	.	2ee-\	.	4gg-X\	.	2ee-\	.	4gg-X\	.
8B-\	.	.	.	.	.	.	.	.	.	.	.	.	.	.	.	.	.	.	.	.	.	.	.	.	.	.	.	.	.	.	.	.
!	!	!	!	!	!	!	!	!LO:TX:b:i:t=dol&colon;:rj	!	!	!	!	!	!	!	!	!	!	!	!	!	!	!	!	!	!	!	!	!	!	!	!
8B-\	.	.	.	.	.	.	.	2gn/	.	.	.	.	.	.	4e-\	per-	.	4gn\	per-	.	.	.	.	.	.	.	2gg\	.	.	.	2ggn\	.
8B-\	.	.	.	.	.	.	.	.	.	.	.	.	.	.	.	.	.	.	.	.	.	.	.	.	.	.	.	.	.	.	.	.
8B-\	.	.	.	.	.	4d-X/	.	.	.	.	.	.	.	.	4d-X\	-pe-	.	4g\	-pe-	.	.	.	.	.	4dd-X\	.	.	.	4dd-X\	.	.	.
8B-\J	.	.	.	.	.	.	.	.	.	.	.	.	.	.	.	.	.	.	.	.	.	.	.	.	.	.	.	.	.	.	.	.
=40	=40	=40	=40	=40	=40	=40	=40	=40	=40	=40	=40	=40	=40	=40	=40	=40	=40	=40	=40	=40	=40	=40	=40	=40	=40	=40	=40	=40	=40	=40	=40	=40
!	!	!	!	!	!	!LO:TX:b:i:t=dol&colon;:rj	!	!	!	!	!	!	!	!	!	!	!	!	!	!	!	!	!	!	!	!	!	!	!	!	!	!
!	!	!	!	!	!	!LO:SIC:s=4d-	!	!	!	!	!	!	!	!	!LO:SIC:s=4d-	!	!	!	!	!	!	!	!	!	!LO:SIC:s=4dd-	!	!	!	!LO:SIC:s=4dd-	!	!	!
2A-\	.	4r	.	4r	.	(>4d/	.	(<4g/	.	.	.	.	.	.	4d\	-tu-	.	4g\	-tu-	.	.	.	.	.	(>4dd\	.	4gg\	.	4dd\	.	4gg\	.
.	.	4r	.	4r	.	4c/)	.	4a-X/	.	.	.	.	.	.	4c\	-a	.	4a-\	-a	.	.	.	.	.	4cc\)	.	4aa-\	.	4cc\	.	4aa-\	.
!LO:TX:b:i:t=dolce:rj	!	!	!	!	!	!	!	!	!	!	!	!	!	!	!	!	!	!	!	!	!	!	!	!	!	!	!	!	!	!	!	!
4F\	.	4f\	.	4f\	.	4f/	.	4a-/)	.	.	.	.	.	.	4r	.	.	4r	.	.	.	.	.	.	4r	.	4aa-\	.	4ff\	.	4fff\	.
!	!	!	!	!	!	!	!	!LO:LB:g=original	!	!	!	!	!	!	!	!	!	!	!	!	!	!	!	!	!	!	!	!	!	!	!	!
=41	=41	=41	=41	=41	=41	=41	=41	=41	=41	=41	=41	=41	=41	=41	=41	=41	=41	=41	=41	=41	=41	=41	=41	=41	=41	=41	=41	=41	=41	=41	=41	=41
4c\	.	4f\	.	4f\	.	4f/	.	4a-/	.	.	.	.	.	.	4r	.	.	4r	.	.	.	.	.	.	4r	.	4aa-\	.	4ff\	.	4fff\	.
4C/	.	4c\	.	4c\	.	4en/	.	4g/	.	.	.	.	.	.	4r	.	.	4r	.	.	.	.	.	.	4r	.	4gg\	.	4cc\	.	4ccc\	.
!	!LO:HP:b:i:t=po	!	!	!	!	!	!	!	!	!	!	!	!	!	!	!	!	!	!	!	!	!	!	!	!	!	!	!	!	!	!	!
8c\L	p	4r	.	4r	.	8e/L	p	8g/L	.	.	.	.	.	.	4en\	lu-	.	4g\	Lu-	.	.	.	.	.	4eeX\	.	4gg\	.	4r	.	4r	.
!	!	!	!	!	!	!	!	!	!LO:DY:rj	!	!	!	!	!	!	!	!	!	!	!	!	!	!	!	!	!	!	!	!	!	!	!
8c\J	.	.	.	.	.	8e/J	.	8g/J	p	.	.	.	.	.	.	.	.	.	.	.	.	.	.	.	.	.	.	.	.	.	.	.
=42	=42	=42	=42	=42	=42	=42	=42	=42	=42	=42	=42	=42	=42	=42	=42	=42	=42	=42	=42	=42	=42	=42	=42	=42	=42	=42	=42	=42	=42	=42	=42	=42
!	!	!LO:TX:a:t=2	!LO:N:vis=0	!	!	!	!	!	!LO:N:vis=0	!	!	!	!	!	!	!	!	!	!	!	!	!	!	!	!	!	!	!	!	!	!	!
!	!	!LO:N:vis=0	!	!	!	!	!	!	!	!LO:N:vis=0	!	!	!LO:N:vis=0	!	!	!	!	!	!	!	!LO:N:vis=0	!	!LO:N:vis=0	!	!	!	!	!	!	!	!	!
8c\L	.	1.r	.	1.r	.	8f/L	.	8a-/L	.	1.r	.	.	1.r	.	4f\	.	.	4a-\	.	.	1.r	.	1.r	.	2ff\	.	4aa-\	.	2ff\	.	4aa-\	.
8c\	.	.	.	.	.	8f/	.	8a-/	.	.	.	.	.	.	.	.	.	.	.	.	.	.	.	.	.	.	.	.	.	.	.	.
8c\	.	.	.	.	.	8f/	.	8an/	.	.	.	.	.	.	4f\	-ce-	.	4an\	-ce-	.	.	.	.	.	.	.	2aa\	.	.	.	2aan\	.
8c\	.	.	.	.	.	8f/	.	8a/	.	.	.	.	.	.	.	.	.	.	.	.	.	.	.	.	.	.	.	.	.	.	.	.
8c\	.	.	.	.	.	8e-X/	.	8a/	.	.	.	.	.	.	4e-X\	-at	.	4a\	-at	.	.	.	.	.	4ee-X\	.	.	.	4ee-X\	.	.	.
8c\J	.	.	.	.	.	8e-/J	.	8a/J	.	.	.	.	.	.	.	.	.	.	.	.	.	.	.	.	.	.	.	.	.	.	.	.
!	!	!	!	!	!	!	!	!	!	!	!	!	!	!	!	!	!	!LO:LB:g=original	!	!	!	!	!	!	!	!	!LO:LB:g=original	!	!	!	!	!
=43	=43	=43	=43	=43	=43	=43	=43	=43	=43	=43	=43	=43	=43	=43	=43	=43	=43	=43	=43	=43	=43	=43	=43	=43	=43	=43	=43	=43	=43	=43	=43	=43
!	!	!	!	!	!	!	!	!LO:SIC:s=4an	!	!	!	!	!	!	!	!	!	!LO:SIC:s=4an	!	!	!	!	!	!	!	!	!	!	!	!	!LO:SIC:s=4aan	!
2B-\	.	.	.	.	.	(<4e-/	.	(<4a-/	.	.	.	.	.	.	4e-\	e-	.	4a-\	e-	.	.	.	.	.	4ee-\	.	4aa\	.	4ee-\	.	4aa-\	.
.	.	.	.	.	.	4d/)	.	4b-/)	.	.	.	.	.	.	4d\	-is	.	4b-\	-is	.	.	.	.	.	4dd\	.	4bb-\	.	4dd\	.	4bb-\	.
4r	.	.	.	.	.	4r	.	4r	.	.	.	.	.	.	4r	.	.	4r	.	.	.	.	.	.	4r	.	4r	.	4r	.	4r	.
!	!	!	!	!	!	!LO:LB:g=original	!	!	!	!	!	!	!	!	!	!	!	!	!	!	!	!	!	!	!	!	!	!	!	!	!	!
=44	=44	=44	=44	=44	=44	=44	=44	=44	=44	=44	=44	=44	=44	=44	=44	=44	=44	=44	=44	=44	=44	=44	=44	=44	=44	=44	=44	=44	=44	=44	=44	=44
!	!	!	!LO:DY:rj	!	!LO:DY:rj	!	!LO:DY:a	!	!	!	!	!	!	!	!LO:TX:a:t=6	!	!	!LO:TX:a:t=6.	!	!	!	!	!	!	!LO:TX:a:t=3	!	!LO:TX:a:t=3.	!	!	!	!	!
!	!LO:HP:b:i:t=fr	!	!	!	!LO:HP:b:i:t=fr	!	!	!	!LO:DY:rj	!	!	!	!	!	!LO:N:vis=00	!	!	!LO:N:vis=00	!	!	!	!	!	!	!LO:N:vis=0	!	!LO:N:vis=0	!	!	!	!	!
4GG/	f	2.G/	f	2.G/	f	8G/	f	8G/	f	4GG/	et	.	4G/	et	0.r	.	.	0.r	.	.	2.g\	.	2.g\	.	1.r	.	1.r	.	2.gg\	f	2.gg\	.
.	.	.	.	.	.	4e-/	.	4e-/	.	.	.	.	.	.	.	.	.	.	.	.	.	.	.	.	.	.	.	.	.	.	.	.
4GG/	.	.	.	.	.	.	.	.	.	4GG/	lux	.	4G/	lux	.	.	.	.	.	.	.	.	.	.	.	.	.	.	.	.	.	.
.	.	.	.	.	.	4B-/	.	4B-/	.	.	.	.	.	.	.	.	.	.	.	.	.	.	.	.	.	.	.	.	.	.	.	.
4GG/	.	.	.	.	.	.	.	.	.	4GG/	per-	.	4G/	per-	.	.	.	.	.	.	.	.	.	.	.	.	.	.	.	.	.	.
.	.	.	.	.	.	8G/	.	8G/	.	.	.	.	.	.	.	.	.	.	.	.	.	.	.	.	.	.	.	.	.	.	.	.
!	!	!	!	!	!	!	!	!	!	!	!	!	!	!	!	!	!	!	!	!	!	!	!	!	!	!	!	!	!LO:LB:g=original	!	!	!
=45	=45	=45	=45	=45	=45	=45	=45	=45	=45	=45	=45	=45	=45	=45	=45	=45	=45	=45	=45	=45	=45	=45	=45	=45	=45	=45	=45	=45	=45	=45	=45	=45
4AA-/	.	2A-/	.	2A-/	.	8A-/	.	8A-/	.	2AA-/	-pe-	.	2A-/	-pe-	.	.	.	.	.	.	2a-\	.	2a-\	.	.	.	.	.	2aa-X\	.	2aa-X\	.
.	.	.	.	.	.	4e-/	.	4e-/	.	.	.	.	.	.	.	.	.	.	.	.	.	.	.	.	.	.	.	.	.	.	.	.
4AA-/	.	.	.	.	.	.	.	.	.	.	.	.	.	.	.	.	.	.	.	.	.	.	.	.	.	.	.	.	.	.	.	.
.	.	.	.	.	.	4c/	.	4c/	.	.	.	.	.	.	.	.	.	.	.	.	.	.	.	.	.	.	.	.	.	.	.	.
4AAn/	.	4An/	.	4An/	.	.	.	.	.	4AAn/	.	.	4An/	.	.	.	.	.	.	.	4aX\	.	4aX\	.	.	.	.	.	4aan\	.	4aan\	.
.	.	.	.	.	.	8An/	.	8An/	.	.	.	.	.	.	.	.	.	.	.	.	.	.	.	.	.	.	.	.	.	.	.	.
!	!	!	!	!	!	!	!	!	!	!	!	!	!	!	!	!	!	!	!	!	!	!	!	!	!	!	!	!	!	!	!LO:LB:g=original	!
=46	=46	=46	=46	=46	=46	=46	=46	=46	=46	=46	=46	=46	=46	=46	=46	=46	=46	=46	=46	=46	=46	=46	=46	=46	=46	=46	=46	=46	=46	=46	=46	=46
2BB-/	.	2.B-/	.	2.B-/	.	4B-/	.	4B-/	.	2.BB-/	-tu-	.	2.B-\	-tu-	.	.	.	.	.	.	2.b-\	.	2.b-\	.	2.r	.	2.r	.	2.bb-\	.	2.bb-\	.
.	.	.	.	.	.	2B-/	.	2fT>/	.	.	.	.	.	.	.	.	.	.	.	.	.	.	.	.	.	.	.	.	.	.	.	.
4BB-/	.	.	.	.	.	.	.	.	.	.	.	.	.	.	.	.	.	.	.	.	.	.	.	.	.	.	.	.	.	.	.	.
!LO:LB:g=original	!	!	!	!	!	!	!	!	!	!LO:LB:g=original	!	!	!LO:LB:g=original	!	!	!	!	!	!	!	!	!	!	!	!	!	!	!	!	!	!	!
=47	=47	=47	=47	=47	=47	=47	=47	=47	=47	=47	=47	=47	=47	=47	=47	=47	=47	=47	=47	=47	=47	=47	=47	=47	=47	=47	=47	=47	=47	=47	=47	=47
2EE-/	.	2E-/	.	2E-/	.	8r	.	8r	.	2EE-/	-a	.	2E-/	-a	.	.	.	.	.	.	4e-\	.	4e-\	.	8r	.	8r	.	2ee-\	.	2eee-\	.
.	.	.	.	.	.	(<8cc/L	.	(>8ee-\L	.	.	.	.	.	.	.	.	.	.	.	.	.	.	.	.	(>8cc\L	.	(>8ee-\L	.	.	.	.	.
!	!	!	!	!	!	!	!	!	!LO:DY:rj	!	!	!	!	!	!	!	!	!	!	!	!	!	!	!	!	!	!	!	!	!	!	!
.	.	.	.	.	.	8b-/	p	8dd\	p	.	.	.	.	.	.	.	.	.	.	.	4r	.	4r	.	8b-\	.	8dd\	.	.	.	.	.
.	.	.	.	.	.	8a-/	.	8cc\	.	.	.	.	.	.	.	.	.	.	.	.	.	.	.	.	8a-\	.	8cc\	.	.	.	.	.
4r	.	4r	.	4r	.	8g/	.	8b-\	.	4r	.	.	4r	.	.	.	.	.	.	.	4r	.	4r	.	8g\	.	8b-\	.	4r	.	4r	.
.	.	.	.	.	.	8f/J)	.	8a-\J)	.	.	.	.	.	.	.	.	.	.	.	.	.	.	.	.	8f\J)	.	8a-\J	.	.	.	.	.
!	!	!	!	!	!	!	!	!LO:LB:g=original	!	!	!	!	!	!	!	!	!	!	!	!	!	!	!	!	!LO:LB:g=original	!	!	!	!	!	!	!
=48	=48	=48	=48	=48	=48	=48	=48	=48	=48	=48	=48	=48	=48	=48	=48	=48	=48	=48	=48	=48	=48	=48	=48	=48	=48	=48	=48	=48	=48	=48	=48	=48
!	!	!LO:TX:a:t=2	!LO:N:vis=0	!	!	!	!	!	!	!LO:TX:a:t=9.	!	!	!LO:TX:a:t=13.	!	!	!	!	!	!	!	!LO:TX:a:t=2.	!	!LO:TX:a:t=2.	!	!	!	!	!	!	!	!	!
!	!	!LO:N:vis=0	!	!	!	!	!	!	!	!LO:N:vis=00	!	!	!LO:N:vis=00	!	!LO:N:vis=0	!	!	!LO:N:vis=0	!	!	!LO:N:vis=0	!	!LO:N:vis=0	!	!LO:TX:a:t=P:problem=mixed beam	!	!LO:TX:a:t=P:problem=mixed beam	!	!	!	!	!
4E-\	.	1.r	.	1.r	.	8e-`</	.	8g`</	.	0.r	.	.	0.r	.	1.r	.	.	1.r	.	.	1.r	.	1.r	.	8e-`>/L	.	8g/L)	.	(>8ee-\L	.	(>8gg\L	.
.	.	.	.	.	.	(<8a-/L	.	(<8cc/L	.	.	.	.	.	.	.	.	.	.	.	.	.	.	.	.	(>8aa-\	.	(>8ccc`>\	.	8aa-\	.	8ccc\	.
4r	.	.	.	.	.	8g/	.	8b-/	.	.	.	.	.	.	.	.	.	.	.	.	.	.	.	.	8gg\	.	8bb-\	.	8gg\	.	8bb-\	.
.	.	.	.	.	.	8f/	.	8a-/	.	.	.	.	.	.	.	.	.	.	.	.	.	.	.	.	8ff\	.	8aa-\	.	8ff\	.	8aa-\	.
4r	.	.	.	.	.	8e-/	.	8g/	.	.	.	.	.	.	.	.	.	.	.	.	.	.	.	.	8ee-\	.	8gg\	.	8ee-\	.	8gg\	.
.	.	.	.	.	.	8d/J)	.	8f/J)	.	.	.	.	.	.	.	.	.	.	.	.	.	.	.	.	8dd\J)	.	8ff\J)	.	8dd\J)	.	8ff\J)	.
=49	=49	=49	=49	=49	=49	=49	=49	=49	=49	=49	=49	=49	=49	=49	=49	=49	=49	=49	=49	=49	=49	=49	=49	=49	=49	=49	=49	=49	=49	=49	=49	=49
4E-\	.	.	.	.	.	4e-/	.	4g/	.	.	.	.	.	.	.	.	.	.	.	.	.	.	.	.	4ee-\	.	4gg\	.	4ee-\	.	4gg\	.
4BB-/	.	.	.	.	.	4d/	.	4f/	.	.	.	.	.	.	.	.	.	.	.	.	.	.	.	.	4dd\	.	4ff\	.	4dd\	.	4ff\	.
4r	.	.	.	.	.	4r	.	4r	.	.	.	.	.	.	.	.	.	.	.	.	.	.	.	.	4r	.	4r	.	4r	.	4r	.
!	!	!	!	!	!	!LO:LB:g=original	!	!LO:PB:g=original	!	!	!	!	!	!	!	!	!	!	!	!	!LO:LB:g=original	!	!	!	!	!	!	!	!	!	!	!
=50	=50	=50	=50	=50	=50	=50	=50	=50||	=50	=50	=50	=50	=50	=50	=50	=50	=50	=50	=50	=50	=50	=50	=50	=50	=50	=50	=50	=50	=50	=50	=50	=50
!	!	!	!	!	!	!	!	!LO:TX:b:t=Cito Vertat(ur)&colon;:rj	!	!	!	!	!	!	!	!	!	!	!	!	!	!LO:HP:b:i:t=po	!	!LO:DY:rj	!	!	!	!	!	!	!	!
4E-\	.	2.g\	.	2b-\	.	8g/L	.	8b-\L	.	.	.	.	.	.	4.g\	Te	.	4.b-\	Te	.	[<2.e-\	p	[<2.e-\	p	2gg\	.	2bb-\	.	2.gg\	.	2bb-\	.
.	.	.	.	.	.	8g/	.	8b-\	.	.	.	.	.	.	.	.	.	.	.	.	.	.	.	.	.	.	.	.	.	.	.	.
4E-\	.	.	.	.	.	8g/	.	8b-\	.	.	.	.	.	.	.	.	.	.	.	.	.	.	.	.	.	.	.	.	.	.	.	.
.	.	.	.	.	.	8g/	.	8b-\	.	.	.	.	.	.	8g\	de-	.	8b-\	de-	.	.	.	.	.	.	.	.	.	.	.	.	.
4E-\	.	.	.	4ee-\	.	8g/	.	8b-\	.	.	.	.	.	.	4g\	-cet	.	4ee-\	-cet	.	.	.	.	.	4g/	.	4ee-\	.	.	.	4eee-\	.
.	.	.	.	.	.	8g/J	.	8b-\J	.	.	.	.	.	.	.	.	.	.	.	.	.	.	.	.	.	.	.	.	.	.	.	.
!	!	!	!	!	!	!	!	!	!	!	!	!	!	!	!LO:LB:g=original	!	!	!	!	!	!	!	!	!	!	!	!	!	!	!	!	!
=51	=51	=51	=51	=51	=51	=51	=51	=51	=51	=51	=51	=51	=51	=51	=51	=51	=51	=51	=51	=51	=51	=51	=51	=51	=51	=51	=51	=51	=51	=51	=51	=51
4E-\	.	4a-\	.	4cc\	.	8a-/L	.	8cc\L	.	.	.	.	.	.	(>4a-\	hy-	.	(>4cc\	hy-	.	2.e-\]	.	2.e-\]	.	4a-/	.	4cc\	.	4aa-\	.	4ccc\	.
.	.	.	.	.	.	8a-/	.	8cc\	.	.	.	.	.	.	.	.	.	.	.	.	.	.	.	.	.	.	.	.	.	.	.	.
4E-\	.	2g\	.	4b-\	.	8g/	.	8b-\	.	.	.	.	.	.	4g\)	.	.	4b-\)	.	.	.	.	.	.	2gt>/	.	4b-\	.	2gg\	.	4bb-\	.
.	.	.	.	.	.	8g/	.	8b-\	.	.	.	.	.	.	.	.	.	.	.	.	.	.	.	.	.	.	.	.	.	.	.	.
4E-\	.	.	.	4cc\	.	8g/	.	8b-\	.	.	.	.	.	.	4g\	-mnus	.	4ee-\	-mnus	.	.	.	.	.	.	.	4ee-\	.	.	.	4eee-\	.
.	.	.	.	.	.	8g/J	.	8b-\J	.	.	.	.	.	.	.	.	.	.	.	.	.	.	.	.	.	.	.	.	.	.	.	.
*	*	*	*	*	*	*	*	*	*	*	*	*	*	*	*	*	*	*	*	*	*	*	*	*	*	*	*	*	*	*	*custos:b-	*
!	!	!	!	!	!	!	!	!	!	!	!	!	!	!	!	!	!	!	!	!	!	!	!	!	!	!	!	!	!	!	!LO:LB:g=original	!
!	!	!	!	!LO:LB:g=original	!	!	!	!	!	!	!	!	!	!	!	!	!	!	!	!	!	!	!LO:LB:g=original	!	!	!	!	!	!	!	!	!
=52	=52	=52	=52	=52	=52	=52	=52	=52	=52	=52	=52	=52	=52	=52	=52	=52	=52	=52	=52	=52	=52	=52	=52	=52	=52	=52	=52	=52	=52	=52	=52	=52
!	!	!	!	!	!	!	!	!	!	!LO:N:vis=00	!	!	!LO:N:vis=00	!	!	!	!	!	!	!	!	!	!	!	!	!	!	!	!	!	!	!
4E-\	.	4a-\	.	4cc\	.	8a-/L	.	8cc\L	.	0.r	.	.	0.r	.	4a-\	De-	.	4cc\	De-	.	4e-\	.	4e-\	.	4a-/	.	4cc\	.	4aa-\	.	4ccc\	.
.	.	.	.	.	.	8a-/	.	8cc\	.	.	.	.	.	.	.	.	.	.	.	.	.	.	.	.	.	.	.	.	.	.	.	.
4E-\	.	4.g\	.	4.b-\	.	8g/	.	8b-\	.	.	.	.	.	.	4.g\	-us	.	4.b-\	-us	.	4e-\	.	4e-\	.	4.g/	.	4.b-\	.	4.gg\	.	4.bb-\	.
.	.	.	.	.	.	8g/	.	8b-\	.	.	.	.	.	.	.	.	.	.	.	.	.	.	.	.	.	.	.	.	.	.	.	.
4E-\	.	.	.	.	.	8g/	.	8b-\	.	.	.	.	.	.	.	.	.	.	.	.	4r	.	4r	.	.	.	.	.	.	.	.	.
.	.	8a-\	.	8cc\	.	8a-/J	.	8cc\J	.	.	.	.	.	.	8a-\	in	.	8cc\	in	.	.	.	.	.	8a-/	.	8cc\	.	8aa-\	.	8ccc\	.
!	!	!LO:LB:g=original	!	!	!	!	!	!	!	!	!	!	!	!	!	!	!	!	!	!	!	!	!	!	!	!	!	!	!LO:LB:g=original	!	!	!
=53	=53	=53	=53	=53	=53	=53	=53	=53	=53	=53	=53	=53	=53	=53	=53	=53	=53	=53	=53	=53	=53	=53	=53	=53	=53	=53	=53	=53	=53	=53	=53	=53
!	!	!	!	!	!	!	!	!	!	!	!	!	!	!	!	!	!	!	!	!	!LO:TX:a:t=4	!	!LO:TX:a:t=4.	!	!	!	!	!	!	!	!	!
!	!	!	!	!	!	!	!	!	!	!	!	!	!	!	!	!	!	!	!	!	!LO:N:vis=00	!	!LO:N:vis=00	!	!	!	!	!	!	!	!	!
4F\	.	2.f\	.	2.a-T>\	.	8f/L	.	8a-/L	.	.	.	.	.	.	2.f\	si-	.	2.a-\	si-	.	0.r	.	0.r	.	2.ff\	.	2.aa-\	.	2.ff\	.	2.aa-TT\	.
.	.	.	.	.	.	8f/	.	8a-/	.	.	.	.	.	.	.	.	.	.	.	.	.	.	.	.	.	.	.	.	.	.	.	.
4D\	.	.	.	.	.	8f/	.	8a-/	.	.	.	.	.	.	.	.	.	.	.	.	.	.	.	.	.	.	.	.	.	.	.	.
.	.	.	.	.	.	8f/	.	8a-/	.	.	.	.	.	.	.	.	.	.	.	.	.	.	.	.	.	.	.	.	.	.	.	.
4BB-\	.	.	.	.	.	8f/	.	8a-/	.	.	.	.	.	.	.	.	.	.	.	.	.	.	.	.	.	.	.	.	.	.	.	.
.	.	.	.	.	.	8f/J	.	8a-/J	.	.	.	.	.	.	.	.	.	.	.	.	.	.	.	.	.	.	.	.	.	.	.	.
=54	=54	=54	=54	=54	=54	=54	=54	=54	=54	=54	=54	=54	=54	=54	=54	=54	=54	=54	=54	=54	=54	=54	=54	=54	=54	=54	=54	=54	=54	=54	=54	=54
4E-\	.	4e-\	.	4g\	.	8e-/L	.	8g\L	.	.	.	.	.	.	4e-\	-on	.	4g\	-on	.	.	.	.	.	4ee-\	.	4gg\	.	4ee-\	.	4gg\	.
.	.	.	.	.	.	8e-/	.	8g\	.	.	.	.	.	.	.	.	.	.	.	.	.	.	.	.	.	.	.	.	.	.	.	.
4E-\	.	4g\	.	4b-\	.	8g/	.	8b-\	.	.	.	.	.	.	4r	.	.	4r	.	.	.	.	.	.	4gg\	.	4bb-\	.	4gg\	.	4bb-\	.
.	.	.	.	.	.	8g/	.	8b-\	.	.	.	.	.	.	.	.	.	.	.	.	.	.	.	.	.	.	.	.	.	.	.	.
4E-\	.	4b-\	.	4ee-\	.	8b-/	.	8ee-\	.	.	.	.	.	.	4g\	et	.	4ee-\	et	.	.	.	.	.	4b-\	.	4ee-\	.	4bb-\	.	4eee-\	.
.	.	.	.	.	.	8b-/J	.	8ee-\J	.	.	.	.	.	.	.	.	.	.	.	.	.	.	.	.	.	.	.	.	.	.	.	.
!	!	!	!	!	!	!	!	!	!	!	!	!	!	!	!	!	!	!LO:LB:g=original	!	!	!	!	!	!	!	!	!LO:LB:g=original	!	!	!	!	!
=55	=55	=55	=55	=55	=55	=55	=55	=55	=55	=55	=55	=55	=55	=55	=55	=55	=55	=55	=55	=55	=55	=55	=55	=55	=55	=55	=55	=55	=55	=55	=55	=55
!	!	!	!	!	!	!LO:TX:b:t=Vertati&colon; Cito	!	!	!	!	!	!	!	!	!	!	!	!	!	!	!	!	!	!	!	!	!	!	!	!	!	!
4E-\	.	4a-\	.	4cc\	.	8a-/L	.	8cc\L	.	.	.	.	.	.	(>4a-\	ti-	.	4cc\	ti-	.	.	.	.	.	4a-/	.	4cc\	.	4aa-\	.	4ccc\	.
.	.	.	.	.	.	8a-/	.	8cc\	.	.	.	.	.	.	.	.	.	.	.	.	.	.	.	.	.	.	.	.	.	.	.	.
4E-\	.	4.g\	.	4.b-\	.	8g/	.	8b-\	.	.	.	.	.	.	4.g\)	-bi	.	4.b-\	-bi	.	.	.	.	.	4.g/	.	4.b-\	.	4.gg\	.	4.bb-\	.
.	.	.	.	.	.	8g/	.	8b-\	.	.	.	.	.	.	.	.	.	.	.	.	.	.	.	.	.	.	.	.	.	.	.	.
4E-\	.	.	.	.	.	8g/	.	8b-\	.	.	.	.	.	.	.	.	.	.	.	.	.	.	.	.	.	.	.	.	.	.	.	.
.	.	8a-\	.	8cc\	.	8a-/J	.	8cc\J	.	.	.	.	.	.	8a-\	red-	.	8cc\	red-	.	.	.	.	.	8a-/	.	8cc\	.	8aa-\	.	8ccc\	.
!	!	!	!	!	!	!LO:PB:g=original	!	!LO:LB:g=original	!	!	!	!	!	!	!	!	!	!	!	!	!	!	!	!	!	!	!	!	!	!	!	!
=56	=56	=56	=56	=56	=56	=56	=56	=56	=56	=56	=56	=56	=56	=56	=56	=56	=56	=56	=56	=56	=56	=56	=56	=56	=56	=56	=56	=56	=56	=56	=56	=56
.	.	.	.	.	.	.	.	.	.	.	.	.	.	.	.	.	.	8qb-/	.	.	.	.	.	.	.	.	.	.	.	.	.	.
!	!	!	!	!	!	!	!	!	!	!LO:N:vis=1	!	!	!LO:N:vis=00	!	!	!	!	!	!	!	!	!	!	!	!	!	!	!	!	!	!	!
*	*	*	*	*	*	*	*	*tremolo	*	*	*	*	*	*	*	*	*	*	*	*	*	*	*	*	*	*	*	*	*	*	*	*
4F\	.	2.f\	.	2.a-\	.	8f/L	.	8a-/L	.	2.r	.	.	0.rd	.	2.f\	-de-	.	2.a-\	-de-	.	.	.	.	.	2.ff\	.	2.aa-\	.	2.ff\	.	2.aa-\	.
.	.	.	.	.	.	8f/	.	8a-/	.	.	.	.	.	.	.	.	.	.	.	.	.	.	.	.	.	.	.	.	.	.	.	.
4D\	.	.	.	.	.	8f/	.	8a-/	.	.	.	.	.	.	.	.	.	.	.	.	.	.	.	.	.	.	.	.	.	.	.	.
.	.	.	.	.	.	8f/	.	8a-/	.	.	.	.	.	.	.	.	.	.	.	.	.	.	.	.	.	.	.	.	.	.	.	.
4BB-\	.	.	.	.	.	8f/	.	8a-/	.	.	.	.	.	.	.	.	.	.	.	.	.	.	.	.	.	.	.	.	.	.	.	.
.	.	.	.	.	.	8f/J	.	8a-/J	.	.	.	.	.	.	.	.	.	.	.	.	.	.	.	.	.	.	.	.	.	.	.	.
*	*	*	*	*	*	*	*	*Xtremolo	*	*	*	*	*	*	*	*	*	*	*	*	*	*	*	*	*	*	*	*	*	*	*	*
!LO:LB:g=original	!	!	!	!	!	!	!	!	!	!	!	!	!	!	!	!	!	!	!	!	!	!	!	!	!	!	!	!	!	!	!	!
=57	=57	=57	=57	=57	=57	=57	=57	=57	=57	=57	=57	=57	=57	=57	=57	=57	=57	=57	=57	=57	=57	=57	=57	=57	=57	=57	=57	=57	=57	=57	=57	=57
!	!	!	!LO:HP:b:i:t=f:	!	!	!	!	!	!	!	!	!	!	!	!	!	!	!	!	!	!	!LO:HP:b:i:t=fr	!	!	!	!	!	!	!	!	!	!
4E-\	.	4e-\	f	4g\	.	4e-/	.	4g/	.	4r	.	.	.	.	2e-\	-tur	.	2g\	-tur	.	4r	f	4r	.	2ee-\	.	2gg\	.	4ee-\	.	4gg\	.
!	!	!	!	!	!LO:HP:b:i:t=f:	!	!	!	!	!	!	!	!	!	!	!	!	!	!	!	!	!	!	!	!	!	!	!	!	!	!	!
!	!	!	!	!	!LO:DY:rj	!	!	!	!	!	!	!	!	!	!	!	!	!	!	!	!	!	!	!	!	!	!	!	!	!LO:HP:b:i:t=f:	!	!
4G\	.	4g\	.	4g\	f	4g/	.	4g/	.	4G\	vo-	.	.	.	.	.	.	.	.	.	4g\	.	4g\	.	.	.	.	.	4gg\	f	4gg\	.
!	!	!	!	!	!	!	!	!	!	!	!	!	!	!	!	!	!	!	!	!	!	!	!	!LO:HP:b:i:t=for:	!	!	!	!	!	!	!	!
4E-\	f	4e-\	.	4e-\	.	4e-/	f	4e-/	f	4E-\	-tum	.	.	.	4r	.	.	4r	.	.	4e-\	.	4e-\	f	4r	.	4r	.	4ee-\	.	4ee-\	.
=58	=58	=58	=58	=58	=58	=58	=58	=58	=58	=58	=58	=58	=58	=58	=58	=58	=58	=58	=58	=58	=58	=58	=58	=58	=58	=58	=58	=58	=58	=58	=58	=58
!	!	!	!	!	!	!	!	!	!	!LO:TX:a:t=P:problem=niejednoznaczny zapis [łuk/ligatura]	!	!	!	!	!LO:TX:a:t=3.	!	!	!LO:TX:a:t=3	!	!	!	!	!	!	!LO:TX:a:t=3	!	!LO:TX:a:t=3	!	!	!	!	!
!	!	!	!	!	!	!	!	!	!	!	!	!	!	!	!LO:N:vis=0	!	!	!LO:N:vis=0	!	!	!	!	!	!	!LO:N:vis=0	!	!LO:N:vis=0	!	!	!	!	!
4.B-\	.	4.b-\	.	4.b-\	.	4.a-/	.	4.b-/	.	(>4.B-\	vo-	.	.	.	1.r	.	.	1.r	.	.	4.b-\	.	4.b-\	.	1.r	.	1.r	.	4.bb-\	.	4.bb-\	.
8B-\	.	8b-\	.	8b-\	.	8b-/	.	8b-/	.	8B-\)	.	.	.	.	.	.	.	.	.	.	8b-\	.	8b-\	.	.	.	.	.	8bb-\	.	8bb-\	.
4A-\	.	4a-\	.	4a-\	.	4a-/	.	4a-/	.	4A-\	-tum	.	.	.	.	.	.	.	.	.	4a-\	.	4a-\	.	.	.	.	.	4aa-\	.	4aa-\	.
!	!	!	!	!	!	!	!	!	!	!	!	!	!	!	!	!	!	!	!	!	!	!	!	!	!	!	!	!	!	!	!LO:PB:g=original	!
=59	=59	=59	=59	=59	=59	=59	=59	=59	=59	=59	=59	=59	=59	=59	=59	=59	=59	=59	=59	=59	=59	=59	=59	=59	=59	=59	=59	=59	=59	=59	=59	=59
4G\	.	4g\	.	4g\	.	4g/	.	4g/	.	(>4G\	in-	.	.	.	.	.	.	.	.	.	4g\	.	4g\	.	.	.	.	.	4gg\	.	4gg\	.
4F\	.	4f\	.	4f\	.	4f/	.	4f/	.	4F\)	.	.	.	.	.	.	.	.	.	.	4f\	.	4f\	.	.	.	.	.	4ff\	.	4ff\	.
!	!	!	!	!	!	!	!	!	!	!	!	!	!	!	!	!	!	!	!	!	!	!	!	!	!	!	!	!	!LO:TX:b:t=Cito Vertate&colon;	!	!	!
4E-\	.	4e-\	.	4e-\	.	4e-/	.	4e-/	.	4E-\	-Je-	.	.	.	.	.	.	.	.	.	4e-\	.	4e-\	.	.	.	.	.	4ee-\	.	4ee-\	.
=60	=60	=60	=60	=60	=60	=60	=60	=60	=60	=60	=60	=60	=60	=60	=60	=60	=60	=60	=60	=60	=60	=60	=60	=60	=60	=60	=60	=60	=60	=60	=60	=60
4B-\	.	4.b-\	.	4.b-\	.	4b-/	.	4b-\	.	4.B-\	-ru-	.	2.re	.	2.r	.	.	2.r	.	.	4b-\	.	4.b-\	.	2.r	.	2.r	.	4.bb-\	.	4.bb-\	.
4BB-/	.	.	.	.	.	4B-/	.	4B-/	.	.	.	.	.	.	.	.	.	.	.	.	4B-/	.	.	.	.	.	.	.	.	.	.	.
.	.	8B-/	.	8B-/	.	.	.	.	.	8BB-/	-sa-	.	.	.	.	.	.	.	.	.	.	.	8B-/	.	.	.	.	.	8b-/	.	8bb-\	.
4r	.	4B-/	.	4B-/	.	4g/	.	4ee-\	.	4BB-/	-lem	.	.	.	.	.	.	.	.	.	4r	.	4B-/	.	.	.	.	.	4b-/	.	4bb-\	.
!	!	!	!	!LO:LB:g=original	!	!	!	!	!	!	!	!	!	!	!	!	!	!	!	!	!	!	!	!	!LO:LB:g=original	!	!	!	!LO:PB:g=original	!	!	!
=61	=61	=61	=61	=61	=61	=61	=61	=61	=61	=61	=61	=61	=61	=61	=61	=61	=61	=61	=61	=61	=61	=61	=61	=61	=61	=61	=61	=61	=61	=61	=61	=61
!	!	!	!	!	!	!	!	!	!	!LO:TX:a:t=3	!	!	!LO:TX:i:a:t=Solo	!	!	!	!	!	!	!	!	!	!	!	!	!	!	!	!	!	!	!
!	!	!	!	!	!	!	!	!	!	!LO:N:vis=0	!	!	!	!	!	!	!	!	!	!	!	!	!	!LO:HP:b:i:t=p:	!	!	!	!	!	!	!	!
4E-\	.	4e-\	.	4e-\	.	4e-/	p	4g/	.	1.r	.	.	4r	.	4r	.	.	4r	.	.	4r	.	4r	p	4r	.	4r	.	4ee-\	.	4eee-\	.
4BB-/	.	4B-/	.	4B-/	.	4d/	.	4f/	.	.	.	.	4r	.	4r	.	.	4r	.	.	4r	.	4r	.	4r	.	4r	.	4bb-\	.	4bb-\	.
*	*	*	*	*	*	*	*	*	*	*	*	*	*	*	*	*	*	*	*	*	*	*	*	*	*	*	*	*	*	*	*	*
*clefC4	*	*	*	*	*	*	*	*	*	*	*	*	*	*	*	*	*	*	*	*	*	*	*	*	*	*	*	*	*	*	*	*
!LO:TX:i:a:t=Tenor:rj	!	!	!	!	!	!	!	!	!	!	!	!	!	!	!	!	!	!	!	!	!	!LO:HP:b:i:t=po	!	!	!	!	!	!	!	!	!	!
4B-\	.	4r	.	4r	.	4g/	.	4b-\	p	.	.	.	4B-\	ad-	4g\	ad-	.	4b-\	ad-	.	4B-/	p	4B-/	.	4gg\	.	4bb-\	.	4r	.	4r	.
!	!	!	!	!	!	!	!	!	!	!	!	!	!	!	!LO:LB:g=original	!	!	!	!	!	!	!	!	!	!	!	!	!	!	!	!	!
=62	=62	=62	=62	=62	=62	=62	=62	=62	=62	=62	=62	=62	=62	=62	=62	=62	=62	=62	=62	=62	=62	=62	=62	=62	=62	=62	=62	=62	=62	=62	=62	=62
!	!	!LO:TX:a:t=2	!LO:N:vis=0	!	!	!	!	!	!	!	!	!	!	!	!	!	!	!	!	!	!	!	!	!	!	!	!	!	!	!	!	!
!	!	!LO:N:vis=0	!	!	!	!	!	!	!	!	!	!	!	!	!	!	!	!	!	!	!	!	!	!	!	!	!	!	!	!	!	!
4B-\	.	1.r	.	1.r	.	4g/	.	4b-/	.	.	.	.	2B-\	.	(>4g\	.	.	(>4b-\	.	.	4B-/	.	4B-/	.	4gg\	.	4bb-\	.	4gg\	.	4bb-\	.
4B-\	.	.	.	.	.	(<4f/	.	(<4a-/	.	.	.	.	.	.	4f\)	.	.	4a-\)	.	.	4B-/	.	4B-/	.	4ff\	.	4aa-\	.	4ff\	.	4aa-\	.
4B-\	.	.	.	.	.	4e-/)	.	4g/)	.	.	.	.	4B-\	-te	4e-\	-te	.	(>4g\	-te	.	4B-/	.	4B-/	.	4ee-\	.	4gg\	.	4ee-\	.	4gg\	.
=63	=63	=63	=63	=63	=63	=63	=63	=63	=63	=63	=63	=63	=63	=63	=63	=63	=63	=63	=63	=63	=63	=63	=63	=63	=63	=63	=63	=63	=63	=63	=63	=63
4B-\	.	.	.	.	.	4d/	.	4f/	.	2.r	.	.	2B-\	o-	(>4d\	o-	.	4f\)	o-	.	4B-/	.	4B-/	.	4dd\	.	8ff\L	.	4dd\	.	8ff\L	.
.	.	.	.	.	.	.	.	.	.	.	.	.	.	.	.	.	.	.	.	.	.	.	.	.	.	.	8bb-\J	.	.	.	8bb-\J	.
4B-\	.	.	.	.	.	4f/	.	(<4a-/	.	.	.	.	.	.	4f\)	.	.	(>4a-\	.	.	4B-/	.	4B-/	.	4ff\	.	4aa-\	.	4ff\	.	4aa-\	.
4B-\	.	.	.	.	.	4e-/	.	4g/)	.	.	.	.	4B-\	-mnis	4e-\	-mnis	.	4g\)	-mnis	.	4B-/	.	4B-/	.	4ee-\	.	4gg\	.	4ee-\	.	4gg\	.
!	!	!LO:LB:g=original	!	!	!	!LO:LB:g=original	!	!LO:LB:g=original	!	!	!	!	!	!	!	!	!	!	!	!	!LO:LB:g=original	!	!	!	!	!	!	!	!	!	!	!
=64	=64	=64	=64	=64	=64	=64	=64	=64	=64	=64	=64	=64	=64	=64	=64	=64	=64	=64	=64	=64	=64	=64	=64	=64	=64	=64	=64	=64	=64	=64	=64	=64
!LO:TX:b:t=Vertat(ur)	!	!	!	!	!	!	!	!	!	!	!	!	!	!	!	!	!	!	!	!	!	!	!	!	!	!	!	!	!	!	!	!
4B-\	.	4r	.	4r	.	4e-/	.	4g/	.	4r	.	.	4B-\	Cǎ-	4e-\	Cǎ-	.	4g\	Cǎ-	.	4B-/	.	4B-/	.	4ee-\	.	4gg\	.	4ee-\	.	4gg\	.
4B-\	.	4r	.	4r	.	4d/	.	4f/	.	4r	.	.	4B-\	-ro	4d\	-ro	.	4f\	-ro	.	4B-/	.	4B-/	.	4dd\	.	4ff\	.	4dd\	.	4ff\	.
4r	.	4g\	.	4g\	.	4r	.	4r	.	4G\	ad	.	4r	.	4r	.	.	4r	.	.	4r	.	4r	.	4r	.	4r	.	4gg\	.	4ee-\	.
!LO:PB:g=original	!	!	!	!	!	!	!	!	!	!LO:LB:g=original	!	!	!	!	!	!	!	!LO:LB:g=original	!	!	!	!	!LO:LB:g=original	!	!	!	!	!	!	!	!	!
=65	=65	=65	=65	=65	=65	=65	=65	=65	=65	=65	=65	=65	=65	=65	=65	=65	=65	=65	=65	=65	=65	=65	=65	=65	=65	=65	=65	=65	=65	=65	=65	=65
*clefF4	*	*	*	*	*	*	*	*	*	*	*	*	*	*	*	*	*	*	*	*	*	*	*	*	*	*	*	*	*	*	*	*
!	!	!	!	!	!	!	!	!	!	!	!	!	!LO:TX:a:t=2	!	!	!	!	!	!	!	!LO:TX:a:t=8	!	!LO:TX:a:t=8	!	!	!	!	!	!	!	!	!
!	!	!	!	!	!	!	!	!	!	!	!	!	!LO:N:vis=0	!	!LO:N:vis=0	!	!	!	!	!	!LO:N:vis=00	!	!LO:N:vis=00	!	!	!	!	!	!	!	!	!
8c\L	.	2cc\	.	2cc\	.	4r	.	4r	.	4.c\	te	.	1.r	.	1.r	.	.	4r	.	.	0.r	.	0.r	.	4r	.	4r	.	2ccc\	.	2ccc\	.
8c\	.	.	.	.	.	.	.	.	.	.	.	.	.	.	.	.	.	.	.	.	.	.	.	.	.	.	.	.	.	.	.	.
8c\	.	.	.	.	.	4r	.	4r	.	.	.	.	.	.	.	.	.	4r	.	.	.	.	.	.	4r	.	4r	.	.	.	.	.
8c\	.	.	.	.	.	.	.	.	.	8c\	o-	.	.	.	.	.	.	.	.	.	.	.	.	.	.	.	.	.	.	.	.	.
8B-\	.	4b-\	.	4b-\	.	4g/	.	4g/	f	4B-\	-mnis	.	.	.	.	.	.	4g\	o-	.	.	.	.	.	4gg\	.	4gg\	.	4bb-\	.	4bb-\	.
8B-\J	.	.	.	.	.	.	.	.	.	.	.	.	.	.	.	.	.	.	.	.	.	.	.	.	.	.	.	.	.	.	.	.
!	!	!	!	!	!	!	!	!	!	!	!	!	!	!	!	!	!	!	!	!	!	!	!	!	!	!	!	!	!	!	!LO:LB:g=original	!
=66	=66	=66	=66	=66	=66	=66	=66	=66	=66	=66	=66	=66	=66	=66	=66	=66	=66	=66	=66	=66	=66	=66	=66	=66	=66	=66	=66	=66	=66	=66	=66	=66
8A-\L	.	2a-\	.	2a-\	.	8cc\L	f	8cc\L	.	2A-\	Cǎ-	.	.	.	.	.	.	4.cc\	.	.	.	.	.	.	4.cc\	.	4.ccc\	.	2aa-\	.	2aa-\	.
8A-\	.	.	.	.	.	8cc\	.	8cc\	.	.	.	.	.	.	.	.	.	.	.	.	.	.	.	.	.	.	.	.	.	.	.	.
8A-\	.	.	.	.	.	8cc\	.	8cc\	.	.	.	.	.	.	.	.	.	.	.	.	.	.	.	.	.	.	.	.	.	.	.	.
8A-\	.	.	.	.	.	8cc\	.	8cc\	.	.	.	.	.	.	.	.	.	8cc\	.	.	.	.	.	.	8cc\	.	8ccc\	.	.	.	.	.
8G\	.	4g\	.	4g\	.	8b-\	.	8b-\	.	4G\	.	.	.	.	.	.	.	4b-\	-mnis	.	.	.	.	.	4b-\	.	4bb-\	.	4gg\	.	4gg\	.
8G\J	.	.	.	.	.	8b-\J	.	8b-\J	.	.	.	.	.	.	.	.	.	.	.	.	.	.	.	.	.	.	.	.	.	.	.	.
!	!	!	!	!	!	!	!	!	!	!	!	!	!	!	!	!	!	!	!	!	!	!	!	!	!	!	!LO:LB:g=original	!	!	!	!	!
=67	=67	=67	=67	=67	=67	=67	=67	=67	=67	=67	=67	=67	=67	=67	=67	=67	=67	=67	=67	=67	=67	=67	=67	=67	=67	=67	=67	=67	=67	=67	=67	=67
!	!	!	!	!	!	!	!	!	!	!	!	!	!	!	!LO:TX:i:a:t=Tutti	!	!	!LO:TX:a:i:t=Tutti	!	!	!	!	!	!	!	!	!	!	!	!	!	!
8F\L	.	2f\	.	2f\	.	8a-/L	.	8a-/L	.	2F\	.	.	2c\	Cǎ-	2f\	Ca-	.	2a-\	Cǎ-	.	.	.	.	.	2a-/	.	2aa-\	.	2ff\	.	2ff\	.
8F\	.	.	.	.	.	8f/	.	8a-/	.	.	.	.	.	.	.	.	.	.	.	.	.	.	.	.	.	.	.	.	.	.	.	.
8F\	.	.	.	.	.	8f/	.	8a-/	.	.	.	.	.	.	.	.	.	.	.	.	.	.	.	.	.	.	.	.	.	.	.	.
8F\	.	.	.	.	.	8f/	.	8a-/	.	.	.	.	.	.	.	.	.	.	.	.	.	.	.	.	.	.	.	.	.	.	.	.
!	!	!LO:TX:a:t=P:problem=♯ w funkcji kasownika	!	!	!	!	!	!	!	!	!	!	!	!	!	!	!	!	!	!	!	!	!	!	!	!	!	!	!	!	!	!
8En\	.	4e#\	.	4en\	.	8g/	.	8b-/	.	4En\	-ro	.	4c\	-ro	4g\	-ro	.	4b-\	-ro	.	.	.	.	.	4g/	.	4bb-\	.	4een\	.	4een\	.
8E\J	.	.	.	.	.	8g/J	.	8b-/J	.	.	.	.	.	.	.	.	.	.	.	.	.	.	.	.	.	.	.	.	.	.	.	.
!	!	!	!	!	!	!	!	!	!	!	!	!	!LO:LB:g=original	!	!	!	!	!	!	!	!	!	!	!	!	!	!	!	!LO:LB:g=original	!	!	!
=68	=68	=68	=68	=68	=68	=68	=68	=68	=68	=68	=68	=68	=68	=68	=68	=68	=68	=68	=68	=68	=68	=68	=68	=68	=68	=68	=68	=68	=68	=68	=68	=68
8F\L	.	2f\	.	2f\	.	8f/L	.	8a-/L	.	2F\	ve-	.	2c\	ve-	2f\	ve-	.	2a-\	ve-	.	.	.	.	.	2.ff\	.	2.aa-\	.	2ff\	.	2ff\	.
8F\	.	.	.	.	.	8f/	.	8a-/	.	.	.	.	.	.	.	.	.	.	.	.	.	.	.	.	.	.	.	.	.	.	.	.
8F\	.	.	.	.	.	8f/	.	8a-/	.	.	.	.	.	.	.	.	.	.	.	.	.	.	.	.	.	.	.	.	.	.	.	.
8F\	.	.	.	.	.	8f/	.	8a-/	.	.	.	.	.	.	.	.	.	.	.	.	.	.	.	.	.	.	.	.	.	.	.	.
8F\	.	4f\	.	4f\	.	8f/	.	8a-/	.	4F\	-ni-	.	4c\	-ni-	4f\	-ni-	.	4a-\	-ni-	.	.	.	.	.	.	.	.	.	4ff\	.	4ff\	.
8F\J	.	.	.	.	.	8f/J	.	8a-/J	.	.	.	.	.	.	.	.	.	.	.	.	.	.	.	.	.	.	.	.	.	.	.	.
=69	=69	=69	=69	=69	=69	=69	=69	=69	=69	=69	=69	=69	=69	=69	=69	=69	=69	=69	=69	=69	=69	=69	=69	=69	=69	=69	=69	=69	=69	=69	=69	=69
!	!	!	!	!	!	!	!	!	!	!	!	!	!	!	!	!	!	!	!	!	!LO:N:vis=00	!	!LO:N:vis=00	!	!	!	!	!	!	!	!	!
4C/	.	4c/	.	4c/	.	2en/	.	2g/	.	2C/	-et	.	4c\	-et	4en\	-et	.	2g\	-et	.	0.r	.	0.r	.	2eeX\	.	2gg\	.	4ccc\	.	4ccc\	.
*clefC4	*	*	*	*	*	*	*	*	*	*	*	*	*	*	*	*	*	*	*	*	*	*	*	*	*	*	*	*	*	*	*	*
4c\	.	4r	.	4r	.	.	.	.	.	.	.	.	4c\	ad	4r	.	.	.	.	.	.	.	.	.	.	.	.	.	4r	.	4r	.
4B-\	.	4r	.	4r	.	4r	.	4r	.	4r	.	.	4B-\	te	4r	.	.	4r	.	.	.	.	.	.	4r	.	4r	.	4r	.	4r	.
=70	=70	=70	=70	=70	=70	=70	=70	=70	=70	=70	=70	=70	=70	=70	=70	=70	=70	=70	=70	=70	=70	=70	=70	=70	=70	=70	=70	=70	=70	=70	=70	=70
.	.	.	.	.	.	.	.	.	.	.	.	.	8qB-/	.	.	.	.	.	.	.	.	.	.	.	.	.	.	.	.	.	.	.
!	!	!LO:TX:a:t=1.	!	!	!	!	!	!LO:TX:a:t=2.	!	!	!	!	!	!	!	!	!	!	!	!	!	!	!	!	!	!	!	!	!LO:TX:a:t=1.	!	!	!
!	!	!LO:N:vis=1	!	!LO:N:vis=1	!	!	!	!LO:N:vis=0	!	!LO:N:vis=1	!	!	!	!	!LO:N:vis=0	!	!	!	!	!	!	!	!	!	!	!	!	!	!LO:N:vis=1	!	!LO:N:vis=1	!
2A-/	.	2.r	.	2.r	.	8r	.	1.r	.	2.r	.	.	2A-\	o-	1.r	.	.	4r	.	.	.	.	.	.	4r	.	4r	.	2.r	.	2.r	.
.	.	.	.	.	.	8cc\L	.	.	.	.	.	.	.	.	.	.	.	.	.	.	.	.	.	.	.	.	.	.	.	.	.	.
.	.	.	.	.	.	8cc\	.	.	.	.	.	.	.	.	.	.	.	4cc\	ad	.	.	.	.	.	4cc\	.	4ccc\	.	.	.	.	.
.	.	.	.	.	.	8cc\	.	.	.	.	.	.	.	.	.	.	.	.	.	.	.	.	.	.	.	.	.	.	.	.	.	.
4G/	.	.	.	.	.	8b-\	.	.	.	.	.	.	4G/	-mnis	.	.	.	4b-\	te	.	.	.	.	.	4b-\	.	4bb-\	.	.	.	.	.
.	.	.	.	.	.	8b-\J	.	.	.	.	.	.	.	.	.	.	.	.	.	.	.	.	.	.	.	.	.	.	.	.	.	.
!LO:LB:g=original	!	!	!	!	!	!LO:LB:g=original	!	!	!	!	!	!	!	!	!	!	!	!	!	!	!	!	!	!	!	!	!	!	!	!	!	!
=71	=71	=71	=71	=71	=71	=71	=71	=71	=71	=71	=71	=71	=71	=71	=71	=71	=71	=71	=71	=71	=71	=71	=71	=71	=71	=71	=71	=71	=71	=71	=71	=71
8F/	.	4r	.	4r	.	8a-/L	.	.	.	4r	.	.	4F/	Ca-	.	.	.	2a-\	o-	.	.	.	.	.	2a-/	.	2aa-\	.	4r	.	4r	.
*clefF4	*	*	*	*	*	*	*	*	*	*	*	*	*	*	*	*	*	*	*	*	*	*	*	*	*	*	*	*	*	*	*	*
8F\	.	.	.	.	.	8a-/	.	.	.	.	.	.	.	.	.	.	.	.	.	.	.	.	.	.	.	.	.	.	.	.	.	.
8F\L	.	4f\	.	4f\	.	8a-/	.	.	.	4F\	ad	.	4F/	-ro	.	.	.	.	.	.	.	.	.	.	.	.	.	.	4ff\	.	4fff\	.
8F\	.	.	.	.	.	8a-/	.	.	.	.	.	.	.	.	.	.	.	.	.	.	.	.	.	.	.	.	.	.	.	.	.	.
8E-\	.	4e-\	.	4e-\	.	8g/	.	.	.	4E-\	te	.	4r	.	.	.	.	4g\	-mnis	.	.	.	.	.	4g/	.	4gg\	.	4ee-\	.	4eee-\	.
8E-\J	.	.	.	.	.	8g/J	.	.	.	.	.	.	.	.	.	.	.	.	.	.	.	.	.	.	.	.	.	.	.	.	.	.
*	*	*	*	*	*	*	*	*custos:b-	*	*	*	*	*	*	*	*	*	*	*	*	*	*	*	*	*	*	*	*	*	*	*	*
!	!	!	!	!	!	!	!	!LO:LB:g=original	!	!	!	!	!	!	!	!	!	!	!	!	!	!	!	!	!	!	!	!	!	!	!	!
=72	=72	=72	=72	=72	=72	=72	=72	=72	=72	=72	=72	=72	=72	=72	=72	=72	=72	=72	=72	=72	=72	=72	=72	=72	=72	=72	=72	=72	=72	=72	=72	=72
8D\L	.	2d\	.	2d\	.	4f/	.	8r	.	2D/	o-	.	2.r	.	4r	.	.	4f/	Cǎ-	.	.	.	.	.	2f/	.	2ff\	.	2dd\	.	2ddd\	.
8D\	.	.	.	.	.	.	.	8ff\L	.	.	.	.	.	.	.	.	.	.	.	.	.	.	.	.	.	.	.	.	.	.	.	.
!	!	!	!	!	!	!	!	!	!	!	!	!	!LO:TX:a:t=1.	!	!	!	!	!	!	!	!	!	!	!	!	!	!	!	!	!	!	!
8D\	.	.	.	.	.	4r	.	8ff\	.	.	.	.	.	.	4f\	Ca-	.	4f/	-ro	.	.	.	.	.	.	.	.	.	.	.	.	.
8D\	.	.	.	.	.	.	.	8ff\	.	.	.	.	.	.	.	.	.	.	.	.	.	.	.	.	.	.	.	.	.	.	.	.
8C\	.	4c\	.	4c\	.	4r	.	8ee-\	.	4C/	-mnis	.	.	.	4e-\	-ro	.	4r	.	.	.	.	.	.	4r	.	4r	.	4cc\	.	4ccc\	.
8C\J	.	.	.	.	.	.	.	8ee-\J	.	.	.	.	.	.	.	.	.	.	.	.	.	.	.	.	.	.	.	.	.	.	.	.
!	!	!	!	!LO:LB:g=original	!	!	!	!	!	!LO:LB:g=original	!	!	!	!	!LO:LB:g=original	!	!	!LO:LB:g=original	!	!	!	!	!	!	!LO:LB:g=original	!	!	!	!	!	!	!
=73	=73	=73	=73	=73	=73	=73	=73	=73	=73	=73	=73	=73	=73	=73	=73	=73	=73	=73	=73	=73	=73	=73	=73	=73	=73	=73	=73	=73	=73	=73	=73	=73
4BB-/	.	4B-/	.	4B-/	.	2.r	.	8dd\L	.	4BB-/	Cǎ-	.	4B-\	et	(>2d\	ve-	.	2.r	.	.	4B-/	.	4B-/	.	2.r	.	2.r	.	4b-\	.	4bb-\	.
.	.	.	.	.	.	.	.	8dd\	.	.	.	.	.	.	.	.	.	.	.	.	.	.	.	.	.	.	.	.	.	.	.	.
*clefC4	*	*	*	*	*	*	*	*	*	*	*	*	*	*	*	*	*	*	*	*	*	*	*	*	*	*	*	*	*	*	*	*
!	!	!	!	!	!	!LO:TX:a:t=1.	!	!	!	!	!	!	!	!	!	!	!	!LO:TX:a:t=1.	!	!	!	!	!	!	!	!	!LO:TX:a:t=1.	!	!	!	!	!
4B-\	.	4r	.	4r	.	.	.	8dd\	.	4BB-/	-ro	.	4B-\	ti-	.	.	.	.	.	.	4b-\	.	4b-\	.	.	.	.	.	4r	.	4r	.
.	.	.	.	.	.	.	.	8dd\	.	.	.	.	.	.	.	.	.	.	.	.	.	.	.	.	.	.	.	.	.	.	.	.
4A-\	.	4r	.	4r	.	.	.	8cc\	.	4r	.	.	4A-X\	-bi	4c\)	.	.	.	.	.	4a-\	.	4a-\	.	.	.	.	.	4r	.	4r	.
.	.	.	.	.	.	.	.	8cc\J	.	.	.	.	.	.	.	.	.	.	.	.	.	.	.	.	.	.	.	.	.	.	.	.
!	!	!	!	!	!	!	!	!	!	!	!	!	!	!	!	!	!	!	!	!	!	!	!	!	!	!	!	!	!	!	!LO:LB:g=original	!
=74	=74	=74	=74	=74	=74	=74	=74	=74	=74	=74	=74	=74	=74	=74	=74	=74	=74	=74	=74	=74	=74	=74	=74	=74	=74	=74	=74	=74	=74	=74	=74	=74
2G/	.	2.r	.	2.r	.	8r	.	8b-\L	.	2.r	.	.	2G/	red-	4B-/	-ni-	.	4b-\	et	.	2g\	.	2g\	.	2b-\	.	2bb-\	.	2.r	.	2.r	.
.	.	.	.	.	.	8b-\L	.	8b-\	.	.	.	.	.	.	.	.	.	.	.	.	.	.	.	.	.	.	.	.	.	.	.	.
!	!	!LO:TX:a:t=1.	!	!	!	!	!	!	!	!	!	!	!	!	!	!	!	!	!	!	!	!	!	!	!	!	!	!	!LO:TX:a:t=1.	!	!LO:TX:a:t=1.	!
.	.	.	.	.	.	8b-\	.	8cc\	.	.	.	.	.	.	4c/	.	.	4b-\	ti-	.	.	.	.	.	.	.	.	.	.	.	.	.
.	.	.	.	.	.	8b-\	.	8cc\	.	.	.	.	.	.	.	.	.	.	.	.	.	.	.	.	.	.	.	.	.	.	.	.
4F/	.	.	.	.	.	8a-\	.	8dd\	.	.	.	.	4G/	.	4d/	-et	.	4a-\	-bi	.	4f\	.	4f\	.	4a-\	.	4aa-\	.	.	.	.	.
.	.	.	.	.	.	8a-\J	.	8dd\J	.	.	.	.	.	.	.	.	.	.	.	.	.	.	.	.	.	.	.	.	.	.	.	.
!	!	!LO:LB:g=original	!	!	!	!	!	!	!	!	!	!	!LO:LB:g=original	!	!	!	!	!	!	!	!	!	!	!	!	!	!	!	!	!	!	!
=75	=75	=75	=75	=75	=75	=75	=75	=75	=75	=75	=75	=75	=75	=75	=75	=75	=75	=75	=75	=75	=75	=75	=75	=75	=75	=75	=75	=75	=75	=75	=75	=75
*clefF4	*	*	*	*	*	*	*	*	*	*	*	*	*	*	*	*	*	*	*	*	*	*	*	*	*	*	*	*	*	*	*	*
8r	.	4e-\	.	4e-\	.	8g/L	.	4ee-\	.	4E-\	Ca-	.	4E-/	-de-	2.r	.	.	2g/	red-	.	4e-\	.	4e-\	.	2g/	.	2gg\	.	4eee-\	.	4eee-\	.
8E-\L	.	.	.	.	.	8g/	.	.	.	.	.	.	.	.	.	.	.	.	.	.	.	.	.	.	.	.	.	.	.	.	.	.
8E-\	.	4e-\	.	4e-\	.	8g/	.	4r	.	4E-\	.	.	4F/	.	.	.	.	.	.	.	4r	.	4r	.	.	.	.	.	4eee-\	.	4eee-\	.
8E-\	.	.	.	.	.	8g/	.	.	.	.	.	.	.	.	.	.	.	.	.	.	.	.	.	.	.	.	.	.	.	.	.	.
8D-X\	.	4d-X\	.	4d-X\	.	8f/	.	4r	.	4D-X\	-ro	.	4G/	-tur	.	.	.	4f/	.	.	4r	.	4r	.	4f/	.	4ff\	.	4ddd-X\	.	4ddd-X\	.
8D-\J	.	.	.	.	.	8f/J	.	.	.	.	.	.	.	.	.	.	.	.	.	.	.	.	.	.	.	.	.	.	.	.	.	.
!	!	!	!	!	!	!	!	!	!	!	!	!	!	!	!	!	!	!	!	!	!	!	!	!	!	!	!	!	!LO:LB:g=original	!	!	!
=76	=76	=76	=76	=76	=76	=76	=76	=76	=76	=76	=76	=76	=76	=76	=76	=76	=76	=76	=76	=76	=76	=76	=76	=76	=76	=76	=76	=76	=76	=76	=76	=76
!	!	!	!	!	!	!	!	!	!	!	!	!	!	!	!LO:TX:a:t=P:problem=niejednoznaczny zapis [łuk/ligatura]	!	!	!	!	!	!	!	!	!	!	!	!	!	!	!	!	!
*tremolo	*	*	*	*	*	*	*	*	*	*	*	*	*	*	*	*	*	*	*	*	*	*	*	*	*	*	*	*	*	*	*	*
8C/L	.	2c\	.	2c/	.	8e-/L	.	8r	.	2C/	ve-	.	2A-\	vo-	(>4e-\	de-	.	(>4e-/	-de-	.	2.r	.	2.r	.	4e-/	.	4ee-\	.	2ccc\	.	2ccc\	.
8C/	.	.	.	.	.	8e-/	.	8ee-\L	.	.	.	.	.	.	.	.	.	.	.	.	.	.	.	.	.	.	.	.	.	.	.	.
!	!	!	!	!	!	!	!	!	!	!	!	!	!	!	!	!	!	!	!	!	!LO:TX:a:t=1.	!	!LO:TX:a:t=1.	!	!LO:TX:a:t=P:problem=skreślony dźwięk 4g	!	!	!	!	!	!	!
8C/	.	.	.	.	.	8f/	.	8ee-\	.	.	.	.	.	.	4e-\)	.	.	4f/)	.	.	.	.	.	.	4a-/	.	4aa-\	.	.	.	.	.
8C/J	.	.	.	.	.	8f/	.	8ee-\	.	.	.	.	.	.	.	.	.	.	.	.	.	.	.	.	.	.	.	.	.	.	.	.
*Xtremolo	*	*	*	*	*	*	*	*	*	*	*	*	*	*	*	*	*	*	*	*	*	*	*	*	*	*	*	*	*	*	*	*
8BB-/L	.	4B-/	.	4B-/	.	8g/	.	8dd-X\	.	4BB-/	.	.	4B-\	.	4d-X\	-tur	.	4g/	-tur	.	.	.	.	.	4gg\	.	4bb-\	.	4bb-\	.	4bb-\	.
8BB-/J	.	.	.	.	.	8g/J	.	8dd-\J	.	.	.	.	.	.	.	.	.	.	.	.	.	.	.	.	.	.	.	.	.	.	.	.
!LO:LB:g=original	!	!	!	!	!	!	!	!	!	!	!	!	!	!	!	!	!	!	!	!	!	!	!	!	!	!	!	!	!	!	!	!
=77	=77	=77	=77	=77	=77	=77	=77	=77	=77	=77	=77	=77	=77	=77	=77	=77	=77	=77	=77	=77	=77	=77	=77	=77	=77	=77	=77	=77	=77	=77	=77	=77
*	*	*	*	*	*	*	*	*tremolo	*	*	*	*	*	*	*	*	*	*	*	*	*	*	*	*	*	*	*	*	*	*	*	*
!	!	!	!	!	!	!	!	!LO:TX:a:t=P:2\right&colon&colon;global:problem	!	!	!	!	!	!	!	!	!	!	!	!	!	!	!	!	!	!	!	!	!	!	!	!
!	!	!	!	!	!	!	!	!LO:TX:a:t=P:problem=kropki i łuk nad nutą	!	!	!	!	!	!	!	!	!	!	!	!	!	!	!	!	!	!	!	!	!	!	!	!
8AA-/L	.	4A-/	.	4A-/	.	8a-/L	.	8cc\L	.	2.AA-/	-ni-	.	2.c\	.	2.e-\	vo-	.	2.a-\	vo-	.	4e-\	.	4e-\	.	2.aa-\	.	2.ccc\	.	4aa-\	.	4aa-\	.
8AA-/	.	.	.	.	.	8a-/	.	8cc\	.	.	.	.	.	.	.	.	.	.	.	.	.	.	.	.	.	.	.	.	.	.	.	.
8C/	.	4c/	.	4c/	.	8a-/	.	8cc\	.	.	.	.	.	.	.	.	.	.	.	.	4e-\	.	4e-\	.	.	.	.	.	4ccc\	.	4ccc\	.
8C/	.	.	.	.	.	8a-/	.	8cc\	.	.	.	.	.	.	.	.	.	.	.	.	.	.	.	.	.	.	.	.	.	.	.	.
8AA-/	.	4A-/	.	4A-/	.	8a-/	.	8cc\	.	.	.	.	.	.	.	.	.	.	.	.	4e-\	.	4e-\	.	.	.	.	.	4aa-\	.	4aa-\	.
8AA-/J	.	.	.	.	.	8a-/J	.	8cc\J	.	.	.	.	.	.	.	.	.	.	.	.	.	.	.	.	.	.	.	.	.	.	.	.
*	*	*	*	*	*	*	*	*Xtremolo	*	*	*	*	*	*	*	*	*	*	*	*	*	*	*	*	*	*	*	*	*	*	*	*
!	!	!	!	!	!	!LO:LB:g=original	!	!LO:LB:g=original	!	!	!	!	!	!	!	!	!	!	!	!	!	!	!	!	!	!	!	!	!	!	!	!
=78	=78	=78	=78	=78	=78	=78	=78	=78	=78	=78	=78	=78	=78	=78	=78	=78	=78	=78	=78	=78	=78	=78	=78	=78	=78	=78	=78	=78	=78	=78	=78	=78
4E-\	.	4e-\	.	4e-\	.	4a-/	.	4cc\	.	2E-\	-et	.	2B-\	-tum	2e-\	-tum	.	2g/	-tum	.	4e-\	.	4e-\	.	2gg\	.	2bb-\	.	4eee-\	.	4eee-\	.
4E-\	.	4D/	.	4E-/	.	4g/	.	4b-\	.	.	.	.	.	.	.	.	.	.	.	.	4r	.	4r	.	.	.	.	.	4eee-\	.	4eee-\	.
4E-\	.	4e-\	.	4e-\	.	8cc/L	.	8aa-\L	.	4r	.	.	4r	.	4r	.	.	4r	.	.	4e-\	.	4e-\	.	4gg\	.	4ee-\	.	4eee-\	.	4eee-\	.
.	.	.	.	.	.	8a-/J	.	8cc\J	.	.	.	.	.	.	.	.	.	.	.	.	.	.	.	.	.	.	.	.	.	.	.	.
=79	=79	=79	=79	=79	=79	=79	=79	=79	=79	=79	=79	=79	=79	=79	=79	=79	=79	=79	=79	=79	=79	=79	=79	=79	=79	=79	=79	=79	=79	=79	=79	=79
!	!	!	!	!	!	!	!	!	!	!LO:TX:a:t=3	!	!	!LO:TX:a:t=3	!	!	!	!	!	!	!	!	!	!	!	!	!	!	!	!	!	!	!
!	!	!	!	!	!	!	!	!	!	!LO:N:vis=0	!	!	!LO:N:vis=0	!	!	!	!	!	!	!	!	!	!	!	!	!	!	!	!	!	!	!
4E-\	.	4e-\	.	4e-\	.	4a-/	.	4cc\	.	1.r	.	.	1.r	.	2.r	.	.	2.r	.	.	4e-\	.	4e-\	.	4a-/	.	4cc\	.	4eee-\	.	4eee-\	.
4E-\	.	4e-\	.	4e-\	.	4g/	.	4b-\	.	.	.	.	.	.	.	.	.	.	.	.	4e-\	.	4e-\	.	4g/	.	4b-\	.	4eee-\	.	4eee-\	.
4r	.	4r	.	4r	.	4r	.	4r	.	.	.	.	.	.	.	.	.	.	.	.	4r	.	4r	.	4r	.	4r	.	4r	.	4r	.
=80	=80	=80	=80	=80	=80	=80	=80	=80	=80	=80	=80	=80	=80	=80	=80	=80	=80	=80	=80	=80	=80	=80	=80	=80	=80	=80	=80	=80	=80	=80	=80	=80
*clefC4	*	*	*	*	*	*	*	*	*	*	*	*	*	*	*	*	*	*	*	*	*	*	*	*	*	*	*	*	*	*	*	*
!	!LO:HP:b:i:t=po	!LO:TX:a:t=2	!	!LO:TX:a:t=2	!	!	!	!	!	!	!	!	!	!	!LO:TX:i:a:t=Solo	!	!	!LO:TX:a:i:t=Solo	!	!	!LO:TX:a:t=2	!	!LO:TX:a:t=2.	!	!	!	!	!	!	!	!LO:TX:a:t=2.	!
!	!LO:DY:rj	!LO:N:vis=0	!	!LO:N:vis=0	!	!	!	!	!	!	!	!	!	!	!	!	!	!	!	!	!LO:N:vis=0	!	!LO:N:vis=0	!	!	!	!	!LO:DY:rj	!LO:N:vis=0	!	!LO:N:vis=0	!
8e-\L	p	1.r	.	1.r	.	4g/	p	4b-\	.	.	.	.	.	.	4g\	in-	.	(>4b-\	in-	.	1.r	.	1.r	.	2g/	p	4b-\	p	1.r	.	1.r	.
8e-\	.	.	.	.	.	.	.	.	.	.	.	.	.	.	.	.	.	.	.	.	.	.	.	.	.	.	.	.	.	.	.	.
8e-\	.	.	.	.	.	4g/	.	4ee-\	.	.	.	.	.	.	4g\	.	.	4ee-\)	.	.	.	.	.	.	.	.	4ee-\	.	.	.	.	.
8e-\	.	.	.	.	.	.	.	.	.	.	.	.	.	.	.	.	.	.	.	.	.	.	.	.	.	.	.	.	.	.	.	.
8e-\	.	.	.	.	.	4b-/	.	4dd-X\	p	.	.	.	.	.	4b-\	-Je-	.	4dd-X\	-Je-	.	.	.	.	.	4b-/	.	4dd-X\	.	.	.	.	.
8e-\J	.	.	.	.	.	.	.	.	.	.	.	.	.	.	.	.	.	.	.	.	.	.	.	.	.	.	.	.	.	.	.	.
!	!	!	!	!	!	!	!	!	!	!	!	!	!	!	!	!	!	!LO:LB:g=original	!	!	!	!	!	!	!	!	!LO:LB:g=original	!	!	!	!	!
=81	=81	=81	=81	=81	=81	=81	=81	=81	=81	=81	=81	=81	=81	=81	=81	=81	=81	=81	=81	=81	=81	=81	=81	=81	=81	=81	=81	=81	=81	=81	=81	=81
8e-\L	.	.	.	.	.	2a-/	.	2ccTT>\	.	2.r	.	.	2.r	.	4.a-\	-ru-	.	4.cc\	-ru-	.	.	.	.	.	4.a-/	.	4.cc\	.	.	.	.	.
8e-\	.	.	.	.	.	.	.	.	.	.	.	.	.	.	.	.	.	.	.	.	.	.	.	.	.	.	.	.	.	.	.	.
8e-\	.	.	.	.	.	.	.	.	.	.	.	.	.	.	.	.	.	.	.	.	.	.	.	.	.	.	.	.	.	.	.	.
8e-\	.	.	.	.	.	.	.	.	.	.	.	.	.	.	8a-\	-sa-	.	8cc\	-sa-	.	.	.	.	.	8a-/	.	8cc\	.	.	.	.	.
8e-\	.	.	.	.	.	4g/	.	4b-\	.	.	.	.	.	.	4g\	-lem	.	4b-\	-lem	.	.	.	.	.	4g/	.	4b-\	.	.	.	.	.
8e-\J	.	.	.	.	.	.	.	.	.	.	.	.	.	.	.	.	.	.	.	.	.	.	.	.	.	.	.	.	.	.	.	.
!	!	!	!	!	!	!	!	!	!	!	!	!	!	!	!LO:LB:g=original	!	!	!	!	!	!	!	!	!	!	!	!	!	!	!	!	!
=82	=82	=82	=82	=82	=82	=82	=82	=82	=82	=82	=82	=82	=82	=82	=82	=82	=82	=82	=82	=82	=82	=82	=82	=82	=82	=82	=82	=82	=82	=82	=82	=82
*clefF4	*	*	*	*	*	*	*	*	*	*	*	*	*	*	*	*	*	*	*	*	*	*	*	*	*	*	*	*	*	*	*	*
!	!	!	!	!	!	!	!	!	!	!	!	!	!	!	!LO:TX:i:a:t=Tutti	!	!	!	!	!	!	!	!	!	!	!	!	!LO:HP:b:i:t=f:	!	!	!	!
4r	f	4r	.	4r	.	4B-/	.	4B-/	.	4r	.	.	4r	.	4r	.	.	4r	.	.	4r	.	4r	.	4r	.	4r	f	4r	.	4r	.
!	!	!	!	!	!	!	!	!	!	!	!	!	!	!	!	!	!	!LO:TX:a:i:t=Tutti	!	!	!	!	!	!	!	!	!	!	!	!	!	!
4D\	.	4d\	.	4d\	.	4f/	.	4a-/	.	4D\	Re-	.	4B-\	Re-	4f\	Re-	.	4a-\	Re-	.	4f\	.	4a-\	.	4ff\	.	4aa-\	.	4dd\	.	4ddd\	.
4E-\	.	4e-\	.	4e-\	.	4e-/	f	4g/	f	4E-\	.	.	4B-\	.	4e-\	.	.	4g\	.	.	4e-\	.	4g\	.	4ee-\	.	4gg\	.	4ee-\	.	4eee-\	.
!LO:LB:g=original	!	!	!	!	!	!	!	!	!	!LO:LB:g=original	!	!	!	!	!	!	!	!	!	!	!LO:LB:g=original	!	!LO:LB:g=original	!	!	!	!	!	!	!	!	!
=83	=83	=83	=83	=83	=83	=83	=83	=83	=83	=83	=83	=83	=83	=83	=83	=83	=83	=83	=83	=83	=83	=83	=83	=83	=83	=83	=83	=83	=83	=83	=83	=83
!	!	!	!	!	!	!	!	!	!	!	!	!	!	!	!	!	!	!	!	!	!	!	!	!	!	!LO:HP:b:i:t=for:	!	!	!	!	!	!
!	!	!	!	!LO:TX:b:t=Vertat(ur)&colon; Cito	!	!	!	!	!	!	!	!	!	!	!	!	!	!	!	!	!	!	!	!	!	!LO:DY:rj	!	!	!	!	!	!
4E-\	.	4e-\	.	4e-\	.	4e-/	.	4g/	.	4E-\	-qui-	.	4B-\	-qui-	4e-\	-qui-	.	4g\	-qui-	.	4e-\	.	4f\	.	4ee-\	f	4gg\	.	4ee-\	.	4eee-\	.
4BB-/	.	4B-/	.	4B-/	.	4d/	.	4f/	.	4BB-/	-em	.	4B-\	-em	4d\	-em	.	4f\	-em	.	4B-/	.	4f\	.	4dd\	.	4ff\	.	4bb-\	.	4bb-\	.
!	!	!LO:TX:b:t=Cito Vertat(ur)&colon;	!	!	!	!	!	!	!	!	!	!	!	!	!	!	!	!	!	!	!	!	!	!	!	!	!	!	!	!	!	!
4r	.	4r	.	4r	.	4r	.	4r	.	4r	.	.	4r	.	4r	.	.	4r	.	.	4r	.	4r	.	4r	.	4r	.	4r	.	4r	.
!	!	!	!	!	!	!	!	!	!	!	!	!	!	!	!	!	!	!LO:PB:g=original	!	!	!	!	!	!	!	!	!	!	!	!	!LO:LB:g=original	!
=84	=84	=84	=84	=84	=84	=84	=84	=84	=84	=84	=84	=84	=84	=84	=84	=84	=84	=84||	=84	=84	=84	=84	=84	=84	=84	=84	=84	=84	=84	=84	=84	=84
*clefC4	*	*	*	*	*	*	*	*	*	*	*	*	*	*	*	*	*	*	*	*	*	*	*	*	*	*	*	*	*	*	*	*
!	!	!LO:TX:a:t=4	!	!LO:TX:a:t=4	!	!	!	!	!	!LO:TX:a:t=2	!	!	!LO:TX:a:t=2	!	!	!	!	!	!	!	!LO:TX:a:t=4	!	!LO:TX:a:t=4	!	!LO:TX:a:t=2	!	!	!	!LO:TX:a:t=4	!	!LO:TX:a:t=4	!
!	!	!	!	!	!	!	!	!	!	!	!	!	!	!	!LO:TX:i:a:t=Solo:rj	!	!	!LO:TX:b:t=Cito Vertetur:rj	!	!	!	!	!	!	!	!	!	!	!	!	!	!
!	!	!	!	!	!	!	!	!	!	!LO:N:vis=0	!	!	!	!	!	!	!	!	!	!	!	!	!	!	!	!	!	!	!	!	!	!
!	!	!LO:N:vis=00	!	!LO:N:vis=00	!	!	!	!	!	!	!	!	!LO:N:vis=0	!	!	!	!	!	!	!	!LO:N:vis=00	!	!LO:N:vis=00	!	!LO:N:vis=0	!	!LO:N:vis=0	!	!LO:N:vis=00	!	!LO:N:vis=00	!
8e-\L	p	0.r	.	0.r	.	8g/L	p	4b-\	.	1.r	.	.	1.r	.	4g\	Re-	.	4b-\	Re-	.	0.r	.	0.r	.	1.r	.	1.r	.	0.r	.	0.r	.
8e-\	.	.	.	.	.	8g/	.	.	.	.	.	.	.	.	.	.	.	.	.	.	.	.	.	.	.	.	.	.	.	.	.	.
8e-\	.	.	.	.	.	8g/	.	4ee-\	.	.	.	.	.	.	4g\	-qui-	.	4ee-\	-qui-	.	.	.	.	.	.	.	.	.	.	.	.	.
8e-\	.	.	.	.	.	8g/	.	.	.	.	.	.	.	.	.	.	.	.	.	.	.	.	.	.	.	.	.	.	.	.	.	.
8e-\	.	.	.	.	.	8b-/	.	4dd-X\	p	.	.	.	.	.	4b-\	-em	.	4dd-X\	-em	.	.	.	.	.	.	.	.	.	.	.	.	.
8e-\J	.	.	.	.	.	8b-/J	.	.	.	.	.	.	.	.	.	.	.	.	.	.	.	.	.	.	.	.	.	.	.	.	.	.
!	!	!	!	!	!	!	!	!LO:LB:g=original	!	!	!	!	!	!	!	!	!	!	!	!	!	!	!	!	!	!	!	!	!	!	!	!
=85	=85	=85	=85	=85	=85	=85	=85	=85	=85	=85	=85	=85	=85	=85	=85	=85	=85	=85	=85	=85	=85	=85	=85	=85	=85	=85	=85	=85	=85	=85	=85	=85
!	!	!	!	!	!	!	!	!	!	!	!	!	!	!	!LO:SIC:s=ae-	!	!	!	!	!	!	!	!	!	!	!	!	!	!	!	!	!
8e-\L	.	.	.	.	.	8a-/L	.	2cc\	.	.	.	.	.	.	4.a-\	e-	.	4.cc\	ae-	.	.	.	.	.	.	.	.	.	.	.	.	.
8e-\	.	.	.	.	.	8a-/	.	.	.	.	.	.	.	.	.	.	.	.	.	.	.	.	.	.	.	.	.	.	.	.	.	.
8e-\	.	.	.	.	.	8a-/	.	.	.	.	.	.	.	.	.	.	.	.	.	.	.	.	.	.	.	.	.	.	.	.	.	.
8e-\J	.	.	.	.	.	8a-/	.	.	.	.	.	.	.	.	8a-\	-ter-	.	8cc\	-ter-	.	.	.	.	.	.	.	.	.	.	.	.	.
4e-\	.	.	.	.	.	8g/	.	4b-\	.	.	.	.	.	.	4g\	-nam	.	4b-\	-nam	.	.	.	.	.	.	.	.	.	.	.	.	.
.	.	.	.	.	.	8g/J	.	.	.	.	.	.	.	.	.	.	.	.	.	.	.	.	.	.	.	.	.	.	.	.	.	.
!	!	!	!	!	!	!LO:LB:g=original	!	!	!	!	!	!	!LO:LB:g=original	!	!	!	!	!	!	!	!	!	!	!	!	!	!	!	!	!	!	!
=86	=86	=86	=86	=86	=86	=86	=86	=86	=86	=86	=86	=86	=86	=86	=86	=86	=86	=86	=86	=86	=86	=86	=86	=86	=86	=86	=86	=86	=86	=86	=86	=86
*clefF4	*	*	*	*	*	*	*	*	*	*	*	*	*	*	*	*	*below	*	*	*	*	*	*	*	*	*	*	*	*	*	*	*
4r	.	.	.	.	.	4B-/	.	4B-/	.	4r	.	.	4r	.	4r	.	.	4r	.	.	.	.	.	.	4r	.	4r	.	.	.	.	.
4D\	.	.	.	.	.	4f/	.	4a-/	.	4D\	Do-	p	4B-\	Do-	4f\	Do-	p	4a-\	Do-	.	.	.	.	.	4ff\	.	4aa-\	.	.	.	.	.
!	!	!	!	!	!	!	!	!	!	!	!	!	!	!	!LO:TX:i:a:t=Tutti:rj	!	!	!	!	!	!	!	!	!	!	!	!	!	!	!	!	!
!	!	!	!	!	!	!	!	!	!	!	!	!LO:DY:a:rj	!	!	!	!	!	!	!	!	!	!	!	!	!	!	!	!	!	!	!	!
4E-\	.	.	.	.	.	4e-/	.	4g/	.	4E-\	-na	p	4B-\	-na	4e-\	-na	.	4g\	-na	.	.	.	.	.	4ee-\	.	4gg\	.	.	.	.	.
!	!	!	!	!	!	!	!	!	!	!	!	!	!	!	!	!	!	!	!	!	!	!	!	!	!LO:LB:g=original	!	!	!	!	!	!	!
=87	=87	=87	=87	=87	=87	=87	=87	=87	=87	=87	=87	=87	=87	=87	=87	=87	=87	=87	=87	=87	=87	=87	=87	=87	=87	=87	=87	=87	=87	=87	=87	=87
4E-\	.	.	.	.	.	4e-/	.	4g/	.	4E-\	e-	.	4B-\	e-	4e-\	e-	.	4g\	e-	.	.	.	.	.	4ee-\	.	4gg\	.	.	.	.	.
4BB-/	.	.	.	.	.	4d/	.	4f/	.	4BB-/	-is	.	4B-\	-is	4d\	-is	.	4f\	-is	.	.	.	.	.	4dd\	.	4ff\	.	.	.	.	.
4r	.	.	.	.	.	4r	.	4r	.	4r	.	.	4r	.	4r	.	.	4r	.	.	.	.	.	.	4r	.	4r	.	.	.	.	.
*	*	*	*	*	*	*	*	*	*	*	*	*	*	*	*	*	*	*	*	*	*	*	*	*	*	*	*	*	*custos:b-	*	*	*
!	!	!	!	!	!	!	!	!	!	!	!	!	!	!	!	!	!	!	!	!	!	!	!	!	!	!	!	!	!LO:LB:g=original	!	!	!
!	!	!LO:PB:g=original	!	!LO:PB:g=original	!	!	!	!	!	!	!	!	!	!	!	!	!	!	!	!	!	!	!	!	!	!	!	!	!	!	!	!
=88	=88	=88	=88	=88	=88	=88	=88	=88	=88	=88	=88	=88	=88	=88	=88	=88	=88	=88	=88	=88	=88	=88	=88	=88	=88	=88	=88	=88	=88	=88	=88	=88
*	*	*	*	*	*	*	*	*tremolo	*	*	*	*	*	*	*	*	*	*	*	*	*	*	*	*	*	*	*	*	*tremolo	*	*tremolo	*
!	!	!	!	!	!	!	!	!LO:TX:a:t=P:problem=kropki i łuk pod nutą	!	!	!	!LO:DY:a	!	!	!	!	!	!	!	!LO:DY:a	!	!	!	!	!	!	!	!	!	!	!LO:TX:a:t=P:problem=kropki i łuk nad nutą	!
!	!	!	!	!	!	!	!	!	!	!	!	!	!	!	!	!	!	!	!	!LO:HP:a:i:t=Fo	!	!	!	!	!	!	!	!	!	!	!	!
!	!	!	!	!	!	!	!	!	!	!	!	!LO:DY:rj	!	!	!	!	!	!	!	!	!	!	!	!	!	!	!	!	!	!	!	!
!	!	!	!	!	!	!	!LO:DY:rj	!	!	!	!	!	!	!	!	!	!	!	!	!	!	!	!	!	!	!	!	!	!	!	!	!
8E-\L	.	8e-\L	.	8e-\L	.	8e-/L	f	8g/L	f	2.E-\	Do-	f	2.B-\	Do-	2.e-\	Do-	.	2.g\	Do-	f	2.e-\	.	2.g\	.	2.ee-\	.	2.gg\	.	8eee-\L	.	8eee-\L	.
8E-\	.	8e-\	.	8e-\	.	8e-/	.	8g/	.	.	.	.	.	.	.	.	.	.	.	.	.	.	.	.	.	.	.	.	8eee-\	.	8eee-\	.
8E-\	.	8e-\	.	8e-\	.	8e-/	.	8g/	.	.	.	.	.	.	.	.	.	.	.	.	.	.	.	.	.	.	.	.	8eee-\	.	8eee-\	.
8E-\	.	8e-\	.	8e-\	.	8e-/	.	8g/	.	.	.	.	.	.	.	.	.	.	.	.	.	.	.	.	.	.	.	.	8eee-\	.	8eee-\	.
8E-\	.	8e-\	.	8e-\	.	8e-/	.	8g/	.	.	.	.	.	.	.	.	.	.	.	.	.	.	.	.	.	.	.	.	8eee-\	.	8eee-\	.
8E-\J	.	8e-\J	.	8e-\J	.	8e-/J	.	8g/J	.	.	.	.	.	.	.	.	.	.	.	.	.	.	.	.	.	.	.	.	8eee-\J	.	8eee-\J	.
*	*	*	*	*	*	*	*	*Xtremolo	*	*	*	*	*	*	*	*	*	*	*	*	*	*	*	*	*	*	*	*	*	*	*	*
!LO:LB:g=original	!	!	!	!	!	!	!	!	!	!	!	!	!	!	!	!	!	!	!	!	!	!	!	!	!	!	!	!	!	!	!	!
=89	=89	=89	=89	=89	=89	=89	=89	=89	=89	=89	=89	=89	=89	=89	=89	=89	=89	=89	=89	=89	=89	=89	=89	=89	=89	=89	=89	=89	=89	=89	=89	=89
*	*	*	*	*	*	*	*	*tremolo	*	*	*	*	*	*	*	*	*	*	*	*	*	*	*	*	*	*	*	*	*	*	*	*
!	!	!	!	!	!	!	!	!LO:TX:a:t=P:problem=kropki i łuk pod nutą	!	!	!	!	!	!	!	!	!	!	!	!	!	!	!	!	!	!	!	!	!	!	!LO:TX:a:t=P:problem=kropki i łuk nad nutą	!
8C/L	.	8c\L	.	8c/L	.	8e-/L	.	8g/L	.	4.C/	-na	.	4.c\	-na	4.e-\	-na	.	4.g\	-na	.	2.e-\	.	2.g\	.	2.ee-\	.	2.gg\	.	8ccc\L	.	8ccc\L	.
8C/	.	8c\	.	8c/	.	8e-/	.	8g/	.	.	.	.	.	.	.	.	.	.	.	.	.	.	.	.	.	.	.	.	8ccc\	.	8ccc\	.
8C/	.	8c\	.	8c/	.	8e-/	.	8g/	.	.	.	.	.	.	.	.	.	.	.	.	.	.	.	.	.	.	.	.	8ccc\	.	8ccc\	.
8C/	.	8c\	.	8c/	.	8e-/	.	8g/	.	8C/	e-	.	8c\	e-	8e-\	e-	.	8g\	e-	.	.	.	.	.	.	.	.	.	8ccc\	.	8ccc\	.
8C/	.	8c\	.	8c/	.	8e-/	.	8g/	.	4C/	-is	.	4c\	-is	4e-\	-is	.	4g\	-is	.	.	.	.	.	.	.	.	.	8ccc\	.	8ccc\	.
8C/J	.	8c\J	.	8c/J	.	8e-/J	.	8g/J	.	.	.	.	.	.	.	.	.	.	.	.	.	.	.	.	.	.	.	.	8ccc\J	.	8ccc\J	.
*	*	*	*	*	*	*	*	*Xtremolo	*	*	*	*	*	*	*	*	*	*	*	*	*	*	*	*	*	*	*	*	*Xtremolo	*	*Xtremolo	*
!	!	!	!	!	!	!	!	!	!	!	!	!	!	!	!LO:LB:g=original	!	!	!LO:LB:g=original	!	!	!	!	!	!	!	!	!	!	!	!	!	!
=90	=90	=90	=90	=90	=90	=90	=90	=90	=90	=90	=90	=90	=90	=90	=90	=90	=90	=90	=90	=90	=90	=90	=90	=90	=90	=90	=90	=90	=90	=90	=90	=90
4AA-/	.	4A-/	.	4A-/	.	8f/L	.	8a-/L	.	(<4AA-/	Do-	.	(>4c\	Do-	(>4f\	Do-	.	(>4a-\	Do-	.	4f\	.	4a-\	.	4ff\	.	4aa-\	.	4aa-\	.	4aa-\	.
.	.	.	.	.	.	8f/	.	8a-/	.	.	.	.	.	.	.	.	.	.	.	.	.	.	.	.	.	.	.	.	.	.	.	.
4.BB-/	.	4B-/	.	4B-/	.	8e-/	.	8g/	.	2BB-/)	-mi-	.	2B-\)	-mi-	4e-\)	.	.	4g\	.	.	4e-\	.	4g\	.	4ee-\	.	4gg\	.	4bb-\	.	4bb-\	.
.	.	.	.	.	.	8e-/	.	8g/	.	.	.	.	.	.	.	.	.	.	.	.	.	.	.	.	.	.	.	.	.	.	.	.
.	.	4B-/	.	4B-/	.	8d/	.	8f/	.	.	.	.	.	.	4d\	-mi-	.	4f/)	-mi-	.	8B-/L	.	4f\	.	4dd\	.	4ff\	.	4bb-\	.	4bb-\	.
8BB-/	.	.	.	.	.	8d/J	.	8f/J	.	.	.	.	.	.	.	.	.	.	.	.	8B-/J	.	.	.	.	.	.	.	.	.	.	.
!	!	!	!	!	!	!	!	!	!	!LO:LB:g=original	!	!	!	!	!	!	!	!	!	!	!	!	!	!	!	!	!	!	!	!	!	!
=91	=91	=91	=91	=91	=91	=91	=91	=91	=91	=91	=91	=91	=91	=91	=91	=91	=91	=91	=91	=91	=91	=91	=91	=91	=91	=91	=91	=91	=91	=91	=91	=91
4EE-/	.	2E-/	.	2E-/	.	4e-/	.	4e-/	.	2EE-/	-ne	.	2B-\	-ne	2e-\	-ne	.	2e-/	-ne	.	2G/	.	2e-\	.	2ee-\	.	2ee-\	.	2eee-\	.	2eee-\	.
4r	.	.	.	.	.	4e-/	.	(<4g/	.	.	.	.	.	.	.	.	.	.	.	.	.	.	.	.	.	.	.	.	.	.	.	.
*	*	*	*	*	*	*custos:b-	*	*	*	*	*	*	*	*	*	*	*	*	*	*	*	*	*	*	*	*	*	*	*	*	*	*
!	!	!	!	!	!	!	!	!	!LO:DY:rj	!	!	!	!	!	!	!	!	!	!	!	!	!	!	!	!	!	!	!	!	!	!	!
4r	.	4r	.	4r	.	4f/	p	4a-/)	p	4r	.	.	4r	.	4r	.	.	4r	.	.	4r	.	4r	.	4r	.	4r	.	4r	.	4r	.
!	!	!	!	!	!	!LO:LB:g=original	!	!	!	!	!	!	!	!	!	!	!	!	!	!	!	!	!	!	!	!	!	!	!	!	!	!
=92	=92	=92	=92	=92	=92	=92	=92	=92	=92	=92	=92	=92	=92	=92	=92	=92	=92	=92	=92	=92	=92	=92	=92	=92	=92	=92	=92	=92	=92	=92	=92	=92
*	*	*	*	*	*	*	*	*tremolo	*	*	*	*	*	*	*	*	*	*	*	*	*	*	*	*	*	*	*	*	*	*	*	*
*clefC4	*	*	*	*	*	*	*	*	*	*	*	*	*	*	*	*	*	*	*	*	*	*	*	*	*	*	*	*	*	*	*	*
!	!	!	!	!LO:TX:a:t=4	!	!	!	!LO:TX:a:t=P:problem=kropki i łuk nad nutą	!	!LO:TX:a:t=2	!	!	!LO:TX:a:t=2	!	!LO:TX:a:i:t=Solo	!	!	!	!	!	!LO:TX:a:t=4	!	!LO:TX:a:t=4.	!	!LO:TX:a:t=4.	!	!LO:TX:a:t=4	!	!LO:TX:a:t=4.	!	!LO:TX:a:t=4.	!
!	!	!LO:N:vis=00	!	!LO:N:vis=00	!	!	!	!	!	!LO:N:vis=0	!	!	!LO:N:vis=0	!	!	!	!	!	!	!	!LO:N:vis=00	!	!LO:N:vis=00	!	!LO:N:vis=00	!	!LO:N:vis=00	!	!LO:N:vis=00	!	!LO:N:vis=00	!
8e-\L	.	0.r	.	0.r	.	8g/L	.	8b-\L	.	1.r	.	.	1.r	.	4g\	et	.	4b-\	et	.	0.r	.	0.r	.	0.r	.	0.r	.	0.r	.	0.r	.
8e-\	.	.	.	.	.	8g/	.	8b-\	.	.	.	.	.	.	.	.	.	.	.	.	.	.	.	.	.	.	.	.	.	.	.	.
8e-\	.	.	.	.	.	8g/	.	8b-\	.	.	.	.	.	.	4g\	lux	.	4ee-\	Lux	.	.	.	.	.	.	.	.	.	.	.	.	.
8e-\	.	.	.	.	.	8g/	.	8b-\	.	.	.	.	.	.	.	.	.	.	.	.	.	.	.	.	.	.	.	.	.	.	.	.
8e-\	.	.	.	.	.	8g/	.	8b-\	.	.	.	.	.	.	4b-\	per-	.	4dd-X\	per-	.	.	.	.	.	.	.	.	.	.	.	.	.
8e-\J	.	.	.	.	.	8g/J	.	8b-\J	.	.	.	.	.	.	.	.	.	.	.	.	.	.	.	.	.	.	.	.	.	.	.	.
*	*	*	*	*	*	*	*	*Xtremolo	*	*	*	*	*	*	*	*	*	*	*	*	*	*	*	*	*	*	*	*	*	*	*	*
!	!	!	!	!	!	!	!	!LO:LB:g=original	!	!	!	!	!	!	!	!	!	!	!	!	!	!	!	!	!	!	!	!	!	!	!	!
=93	=93	=93	=93	=93	=93	=93	=93	=93	=93	=93	=93	=93	=93	=93	=93	=93	=93	=93	=93	=93	=93	=93	=93	=93	=93	=93	=93	=93	=93	=93	=93	=93
8e-\L	.	.	.	.	.	8a-/L	.	8cc\L	.	.	.	.	.	.	4.a-\	-pe-	.	4.cc\	-pe-	.	.	.	.	.	.	.	.	.	.	.	.	.
8e-\	.	.	.	.	.	8a-/	.	8cc\	.	.	.	.	.	.	.	.	.	.	.	.	.	.	.	.	.	.	.	.	.	.	.	.
8e-\	.	.	.	.	.	8a-/	.	8cc\	.	.	.	.	.	.	.	.	.	.	.	.	.	.	.	.	.	.	.	.	.	.	.	.
8e-\J	.	.	.	.	.	8a-/	.	8cc\	.	.	.	.	.	.	8a-\	-tu-	.	8cc\	-tu-	.	.	.	.	.	.	.	.	.	.	.	.	.
4e-\	.	.	.	.	.	8g/	.	8b-\	.	.	.	.	.	.	4g\	-a	.	4b-\	-a	.	.	.	.	.	.	.	.	.	.	.	.	.
.	.	.	.	.	.	8g/J	.	8b-\J	.	.	.	.	.	.	.	.	.	.	.	.	.	.	.	.	.	.	.	.	.	.	.	.
!	!	!	!	!	!	!	!	!	!	!	!	!	!LO:LB:g=original	!	!	!	!	!	!	!	!	!	!	!	!	!	!	!	!	!	!	!
=94	=94	=94	=94	=94	=94	=94	=94	=94	=94	=94	=94	=94	=94	=94	=94	=94	=94	=94	=94	=94	=94	=94	=94	=94	=94	=94	=94	=94	=94	=94	=94	=94
*clefF4	*	*	*	*	*	*	*	*	*	*	*	*	*	*	*	*	*	*	*	*	*	*	*	*	*	*	*	*	*	*	*	*
!	!	!	!	!	!	!	!	!	!	!	!	!	!	!	!LO:TX:i:a:t=Tutti	!	!	!	!	!	!	!	!	!	!	!	!	!	!	!	!	!
4r	.	.	.	.	.	4B-/	.	4B-/	.	4r	.	.	4r	.	4r	.	.	4r	.	.	.	.	.	.	.	.	.	.	.	.	.	.
4D\	.	.	.	.	.	4f/	.	4a-/	.	(>4D\	Lu-	.	4B-\	lu-	(>4f\	Lu-	.	(>4a-\	lu-	.	.	.	.	.	.	.	.	.	.	.	.	.
!	!	!	!	!	!	!	!	!	!	!	!	!LO:DY:a:rj	!	!	!	!	!	!	!	!	!	!	!	!	!	!	!	!	!	!	!	!
4E-\	.	.	.	.	.	4e-/	.	4g/	.	4E-\)	.	p	4B-\	.	4e-\)	.	.	4g/)	.	.	.	.	.	.	.	.	.	.	.	.	.	.
!LO:LB:g=original	!	!	!	!	!	!	!	!	!	!	!	!	!	!	!	!	!	!	!	!	!	!	!	!	!	!	!	!	!	!	!	!
=95	=95	=95	=95	=95	=95	=95	=95	=95	=95	=95	=95	=95	=95	=95	=95	=95	=95	=95	=95	=95	=95	=95	=95	=95	=95	=95	=95	=95	=95	=95	=95	=95
4E-\	.	.	.	.	.	4e-/	.	4g/	.	4BB-/	-ce-	.	4B-\	-ce-	4e-\	-ce-	.	4g/	-ce-	.	.	.	.	.	.	.	.	.	.	.	.	.
4BB-/	.	.	.	.	.	4d/	.	4f/	.	4BB-/	-at	.	4B-\	-at	4d\	-at	.	4f/	-at	.	.	.	.	.	.	.	.	.	.	.	.	.
4r	.	.	.	.	.	4r	.	4r	.	4r	.	.	4r	.	4r	.	.	4r	.	.	.	.	.	.	.	.	.	.	.	.	.	.
!	!	!	!	!	!	!	!	!	!	!	!	!	!	!	!LO:PB:g=original	!	!	!	!	!	!	!	!	!	!	!	!	!	!	!	!	!
=96	=96	=96	=96	=96	=96	=96	=96	=96	=96	=96	=96	=96	=96	=96	=96	=96	=96	=96	=96	=96	=96	=96	=96	=96	=96	=96	=96	=96	=96	=96	=96	=96
*	*	*	*	*	*	*	*	*tremolo	*	*	*	*	*	*	*	*	*	*	*	*	*	*	*	*	*	*	*	*	*	*	*	*
!	!	!	!	!	!	!	!	!	!	!	!	!	!	!	!	!	!LO:DY:a	!	!	!	!	!	!	!	!	!	!	!	!	!	!	!
!	!LO:HP:b:i:t=f:	!	!	!	!	!	!	!	!	!	!	!LO:DY:a:rj	!	!	!	!	!	!	!	!	!	!	!	!	!	!	!	!	!	!	!	!
8E-\L	f	8e-\L	.	8e-\L	.	8e-/L	.	8g/L	f	2.E-\	Lu-	f	2.B-\	Lu-	2.e-\	Lu-	f	2.g/	Lu-	.	[<2.e-\	.	[<2.g\	.	[<2.ee-\	.	[<2.gg\	.	2.eee-\	.	2.eee-\	.
8E-\	.	8e-\	.	8e-\	.	8e-/	.	8g/	.	.	.	.	.	.	.	.	.	.	.	.	.	.	.	.	.	.	.	.	.	.	.	.
8E-\	.	8e-\	.	8e-\	.	8e-/	.	8g/	.	.	.	.	.	.	.	.	.	.	.	.	.	.	.	.	.	.	.	.	.	.	.	.
8E-\	.	8e-\	.	8e-\	.	8e-/	.	8g/	.	.	.	.	.	.	.	.	.	.	.	.	.	.	.	.	.	.	.	.	.	.	.	.
8E-\	.	8e-\	.	8e-\	.	8e-/	.	8g/	.	.	.	.	.	.	.	.	.	.	.	.	.	.	.	.	.	.	.	.	.	.	.	.
8E-\J	.	8e-\J	.	8e-\J	.	8e-/J	.	8g/J	.	.	.	.	.	.	.	.	.	.	.	.	.	.	.	.	.	.	.	.	.	.	.	.
!	!	!	!	!	!	!	!	!	!	!	!	!	!	!	!	!	!	!LO:LB:g=original	!	!	!	!	!	!	!	!	!	!	!	!	!	!
=97	=97	=97	=97	=97	=97	=97	=97	=97	=97	=97	=97	=97	=97	=97	=97	=97	=97	=97	=97	=97	=97	=97	=97	=97	=97	=97	=97	=97	=97	=97	=97	=97
8C/L	.	8c\L	.	8c/L	.	8e-/L	.	8g/L	.	2C/	-ce-	.	2c\	-ce-	2e-\	-ce-	.	2g\	-ce-	.	2.e-\]	.	2.g\]	.	2.ee-\]	.	2.gg\]	.	2.ccc\	.	2.ccc\	.
8C/	.	8c\	.	8c/	.	8e-/	.	8g/	.	.	.	.	.	.	.	.	.	.	.	.	.	.	.	.	.	.	.	.	.	.	.	.
8C/	.	8c\	.	8c/	.	8e-/	.	8g/	.	.	.	.	.	.	.	.	.	.	.	.	.	.	.	.	.	.	.	.	.	.	.	.
8C/	.	8c\	.	8c/	.	8e-/	.	8g/	.	.	.	.	.	.	.	.	.	.	.	.	.	.	.	.	.	.	.	.	.	.	.	.
8C/	.	8c\	.	8c/	.	8e-/	.	8g/	.	4C/	-at	.	4c\	-at	4e-\	-at	.	4g\	-at	.	.	.	.	.	.	.	.	.	.	.	.	.
8C/J	.	8c\J	.	8c/J	.	8e-/J	.	8g/J	.	.	.	.	.	.	.	.	.	.	.	.	.	.	.	.	.	.	.	.	.	.	.	.
*	*	*	*	*	*	*	*	*Xtremolo	*	*	*	*	*	*	*	*	*	*	*	*	*	*	*	*	*	*	*	*	*	*	*	*
!	!	!	!	!	!	!LO:LB:g=original	!	!	!	!	!	!	!	!	!	!	!	!	!	!	!	!	!	!	!	!	!	!	!	!	!	!
=98	=98	=98	=98	=98	=98	=98	=98	=98	=98	=98	=98	=98	=98	=98	=98	=98	=98	=98	=98	=98	=98	=98	=98	=98	=98	=98	=98	=98	=98	=98	=98	=98
!	!	!	!	!	!	!	!	!	!	!	!	!	!LO:TX:a:t=P:problem=albo B	!	!	!	!	!	!	!	!	!	!	!	!	!	!	!	!	!	!	!
4AA-/	.	4A-/	.	4A-/	.	4f/	.	4a-/	.	4AA-/	e-	.	4c\	e-	4f\	e-	.	4a-\	e-	.	4f\	.	4a-\	.	4ff\	.	4aa-\	.	4aa-\	.	4aa-\	.
[<2BB-/	.	2B-/	.	2B-/	.	2e-/	.	2g/	.	[<2BB-/	.	.	2B-\	.	2e-\	.	.	2g\	.	.	2e-\	.	2g\	.	2ee-\	.	2gg\	.	2bb-\	.	2bb-\	.
.	.	.	.	.	.	.	.	.	.	.	.	.	.	.	.	.	.	.	.	.	.	.	.	.	.	.	.	.	.	.	.	.
!	!	!	!	!LO:LB:g=original	!	!	!	!	!	!	!	!	!	!	!	!	!	!	!	!	!	!	!	!	!	!	!	!	!	!	!LO:LB:g=original	!
=99	=99	=99	=99	=99	=99	=99	=99	=99	=99	=99	=99	=99	=99	=99	=99	=99	=99	=99	=99	=99	=99	=99	=99	=99	=99	=99	=99	=99	=99	=99	=99	=99
!	!	!	!	!LO:TX:a:t=P:problem=podwójna kreska taktowa	!	!	!	!	!	!	!	!	!	!	!	!	!	!	!	!	!	!	!	!	!	!	!	!	!	!	!LO:TX:a:t=P:problem=podwójna kreska taktowa	!
2.BB-;>/]	.	2.B-;>/	.	2.B-;>/	.	2.d;>/	.	2.f;>/	.	2.BB-;>/]	.	.	2.B-;>\	.	2.d;>\	.	.	2.f;>/	.	.	2B-;>/	.	2.f;>\	.	2.dd;>\	.	2.ff;>\	.	2.bb-;<\	.	2.bb-;>\	.
.	.	.	.	.	.	.	.	.	.	.	.	.	.	.	.	.	.	.	.	.	4B-/	.	.	.	.	.	.	.	.	.	.	.
!	!	!	!	!	!	!	!	!	!	!	!	!	!	!	!	!	!	!	!	!	!	!	!	!	!	!	!	!	!LO:LB:g=original	!	!	!
=100	=100	=100	=100	=100||	=100	=100	=100	=100	=100	=100	=100	=100	=100	=100	=100	=100	=100	=100	=100	=100	=100	=100	=100	=100	=100	=100	=100	=100	=100	=100	=100||	=100
2EE-/	.	2E-/	.	2E-/	.	2e-/	.	2e-/	.	2EE-/	-is	.	2B-\	-is	2e-\	-is	.	2e-/	-is	.	2G/	.	2e-\	.	2ee-\	.	2ee-\	.	2eee-\	.	2eee-\	.
4r	.	4r	.	4r	.	4r	.	4r	.	4r	.	.	4r	.	4r	.	.	4r	.	.	4r	.	4r	.	4r	.	4r	.	4r	.	4r	.
==	==	==	==	==	==	==	==	==	==	==	==	==	==	==	==	==	==	==	==	==	==	==	==	==	==	==	==	==	==	==	==	==
*-	*-	*-	*-	*-	*-	*-	*-	*-	*-	*-	*-	*-	*-	*-	*-	*-	*-	*-	*-	*-	*-	*-	*-	*-	*-	*-	*-	*-	*-	*-	*-	*-
!!!system-decoration: [(s1,s2,s3,s4)][(s5,s6)][(s7,s8,s9,s10)][(s11,s12,s13,s14)]s15
!!!RDF**kern: > = above
!!!RDF**kern: < = below
!!!RDF**dynam: p = "po:"
!!!RDF**dynam: f = "fr:"
!!!ENC: Mateusz Mrugas
!!!END: 2020-09-28
!!!YEC: Copyright 2022 Narodowy Instytut Fryderyka Chopina (https://polishscores.org)
!!!YEM: License CC-BY-4.0 (https://creativecommons.org/licenses/by/4.0)
